!!!COM: Mozart
!!!OTL: 8 Variationen uber das Lied "Ein Weib ist das herrlichste Ding"
!!!Variation: Theme a
**function	**harm	**kern	**kern
*	*	*clefF4	*clefG2
*	*	*k[b-]	*k[b-]
*F:	*F:	*F:	*F:
*M3/4	*M3/4	*M3/4	*M3/4
4D	4V	4r	4cc
=1	=1	=1	=1
2.D	2.V	2.r	(8bL
.	.	.	8ccJ
.	.	.	8ddL)
.	.	.	8cc'J
.	.	.	8b-'L
.	.	.	8a'J
=2	=2	=2	=2
2D	2V	4r	8g'L
.	.	.	8f'J
.	.	4r	8e'L
.	.	.	8d'J
4D	4V7d	4B-	(8cL
.	.	.	8eJ)
=3	=3	=3	=3
*	*	*^	*
4D	4Ib	2.c	4A	4f
.	.	.	.	(q32g
4D	4Vc	.	4G	(8fL)
.	.	.	.	8eJ
4D	4I	.	4F	8fL
.	.	.	.	8aJ)
=4	=4	=4	=4	=4
4D	4Ic	2c	2C	(4f 4a
2D	2V	.	.	4e) 4g
*	*	*v	*v	*
.	.	4r	4cc
=5	=5	=5	=5
2.D	2.V	2.r	(8bL
.	.	.	8ccJ
.	.	.	8ddL)
.	.	.	8cc'J
.	.	.	8b-'L
.	.	.	8a'J
=6	=6	=6	=6
2D	2V	4r	8g'L
.	.	.	8f'J
.	.	4r	8e'L
.	.	.	8d'J
4D	4V7d	4BB-	(8cL
.	.	.	8eJ)
=7	=7	=7	=7
4T	4Ib	4AA	4f
4D	4Cc	4C	(8fL
.	.	.	8aJ)
*	*	*	*^
4D	4V7	4CC	(8gL	4B-
.	.	.	8eJ)	.
=8	=8	=8	=8	=8
2T	2I	4FF	4f	4A
*	*	*	*v	*v
.	.	4F	4r
*-	*-	*-	*-
!!!COM: Mozart
!!!OTL: 8 Variationen uber das Lied "Ein Weib ist das herrlichste Ding"
!!!Variation: Theme b
**function	**harm	**kern	**kern
*	*	*clefF4	*clefG2
*	*	*k[b-]	*k[b-]
*F:	*F:	*F:	*F:
*M3/4	*M3/4	*M3/4	*M3/4
4T	4V	4r	4c
=9	=9	=9	=9
*	*	*	*^
2.T	2.I	2F	(4f	2A
.	.	.	4c)	.
.	.	4r	4f	4r
=10	=10	=10	=10	=10
2.T	2.V	2C	(4g	4e
.	.	.	4c)	4r
*	*	*	*v	*v
.	.	4r	4g
=11	=11	=11	=11
4T	4I	(4F	(4a
4T	4vi	4D	4f)
*	*	*	*^
4T	4iib	4BB-)	4g	4b-
=12	=12	=12	=12	=12
4T	4Cc	2C	(4f	4a
2T	2V	.	4e)	4g
*	*	*	*v	*v
.	.	4r	4cc
=13	=13	=13	=13
4T	4Ib	(4A 4f	(4cc
4T	4viiob	4G 4e	4b-
4T	4I	4F) 4f	4a)
=14	=14	=14	=14
2P	2IV	4B-	(4f 4dd
.	.	4r	4d) 4b-
4P	4iib	4BB-	4B- 4g
=15	=15	=15	=15
*	*	*^	*
4D	4Cc	(4A	4C	(4f
2D	2V7	4B-)	4r	4g)
.	.	4G	4C	4e'
=16	=16	=16	=16	=16
2T	2I	4A	4F	4f'
*	*	*v	*v	*
.	.	4FF	4r
*-	*-	*-	*-
!!!COM: Mozart
!!!OTL: 8 Variationen uber das Lied "Ein Weib ist das herrlichste Ding"
!!!Variation: Theme c
**function	**harm	**kern	**kern
*	*	*clefF4	*clefG2
*	*	*k[b-]	*k[b-]
*F:	*F:	*F:	*F:
*M3/4	*M3/4	*M3/4	*M3/4
*	*	*	*^
4D	4V	4r	4g'	4e
=17	=17	=17	=17	=17
2.D	2.V	2C	(4e	(4c
.	.	.	4g)	4e)
.	.	4r	4g'	4e
=18	=18	=18	=18	=18
2.D	2.V	2C	(4cc	2e
.	.	.	4g)	.
.	.	4r	4g'	4e
=19	=19	=19	=19	=19
2.D	2.V	2C	(4e	(4c
.	.	.	4g)	4e)
.	.	4r	4g'	4e
=20	=20	=20	=20	=20
2.D	2.V	4C	4cc'	4e
.	.	4CC	4r	4r
.	.	4r	4gg'	4ee
=21	=21	=21	=21	=21
2.D	2.V	2c	(4ee	(4cc
.	.	.	4gg)	4ee)
.	.	4r	4gg'	4ee
=22	=22	=22	=22	=22
2.D	2.V	2c	(4ccc	2ee
.	.	.	4gg)	.
.	.	4r	4gg'	4ee
=23	=23	=23	=23	=23
2.D	2.V	2c	(4ee	(4cc
.	.	.	4gg)	4ee)
.	.	4r	4gg'	4ee
=24	=24	=24	=24	=24
2.D	2.V	4c'	4ccc'	4ee
*	*	*	*v	*v
.	.	4C'	4r
.	.	4CC 4C	4c
=25	=25	=25	=25
2.D	2.V	4CC 4C	(4c
.	.	4DD 4D	4d
.	.	4EE 4E	4e)
=26	=26	=26	=26
.	.	.	(q32g
2.D	2.I	4FF 4F	(4f)
.	.	4EE 4E	4e
.	.	4FF 4F	4f)
=27	=27	=27	=27
2.D	2.vi	4DD 4D	(4d
.	.	4EE 4E	4e
.	.	4FF 4F	4f)
=28	=28	=28	=28
.	.	.	(q32a
2.D	2.ii	4GG 4G	(4g)
.	.	4FF# 4F#	4f#
.	.	4GG 4G	4g)
=29	=29	=29	=29
2.D	2.viio	4EE 4E	(4e
.	.	4FF 4F	4f
.	.	4GG 4G	4g)
=30	=30	=30	=30
.	.	.	(q32b-
2.D	2.iii	4AA 4A	(4a)
.	.	4GG# 4G#	4g#
.	.	4AA 4A	4a)
=31	=31	=31	=31
*	*	*	*^
.	.	.	(q32cc	.
2.D	2.V7/V	2.GGn 2.Gn	(4b)	2.d 2.f
.	.	.	4a	.
.	.	.	4b)	.
=32	=32	=32	=32	=32
2.D	2.V	4CC 4C	[2cc	2e
.	.	4r	.	.
*	*	*	*v	*v
.	.	4r	(8.ccL]
.	.	.	16cc#Jk
.	.	.	q32ee
.	.	.	q32dd
.	.	.	q32cc
.	.	.	q32b-
.	.	.	q32a
.	.	.	q32cc
.	.	.	q32b
.	.	.	q32b-
.	.	.	q32a
.	.	.	q32b-
.	.	.	q32g)
*-	*-	*-	*-
!!!COM: Mozart
!!!OTL: 8 Variationen uber das Lied "Ein Weib ist das herrlichste Ding"
!!!Variation: Theme d
**function	**harm	**kern	**kern
*	*	*clefF4	*clefG2
*	*	*k[b-]	*k[b-]
*F:	*F:	*F:	*F:
*M3/4	*M3/4	*M3/4	*M3/4
=33	=33	=33	=33
2.T	2.I	2F	(4f
.	.	.	4c)
.	.	4r	4f
=34	=34	=34	=34
*	*	*	*^
2.T	2.V	2C	(4g	4e
.	.	.	4c)	4r
.	.	4r	4g	4r
*	*	*	*v	*v
=35	=35	=35	=35
4T	4I	(4F	(4a
4T	4vi	4D	4f)
*	*	*	*^
4T	4iib	4BB-)	4g	4b-
=36	=36	=36	=36	=36
4T	4Cc	2C	(4f	4a
2T	2V	.	4e)	4g
*	*	*	*v	*v
.	.	4r	4cc
=37	=37	=37	=37
4T	4Ib	(4A 4f	(4cc
4T	4viiob	4G 4e	4b-
4T	4I	4F) 4f	4a)
=38	=38	=38	=38
2T	2IV	4B-	(4f 4dd
.	.	4r	4d) 4b-
4T	4iib	4BB-	4B- 4g
=39	=39	=39	=39
*	*	*^	*
4T	4Cc	(4A	2.C	(4f
2T	2V	4E	.	4g
*	*	*	*	*^
.	.	4G)	.	4cc)	4e
=40	=40	=40	=40	=40	=40
2T	2I	2F	2FF	(4b-	4g
.	.	.	.	4a)	4f
4T	4V	4r	4r	4cc'	4a
*	*	*v	*v	*	*
=41	=41	=41	=41	=41
2.T	2.I	(4F 4A	(4cc	4a
.	.	4G 4B-	4b-	4g
.	.	4A) 4c	4a)	4f
=42	=42	=42	=42	=42
2P	2IV	4B- 4d	(4dd	4f
.	.	4r	4b-)	4d
4P	4iib	4BB-	4g	4B-
*	*	*	*v	*v
=43	=43	=43	=43
*	*	*^	*
4D	4Ic	(4A	2C	(4f
2D	2V7	4B-)	.	4g)
.	.	4G	4C	4e'
=44	=44	=44	=44	=44
2T	2I	4A	4F	4f'
*	*	*v	*v	*
.	.	4FF	4r
*-	*-	*-	*-
!!!COM: Mozart
!!!OTL: 8 Variationen uber das Lied "Ein Weib ist das herrlichste Ding"
!!!Variation: Variation 1 a
**function	**harm	**kern	**kern
*	*	*clefF4	*clefG2
*	*	*k[b-]	*k[b-]
*F:	*F:	*F:	*F:
*M3/4	*M3/4	*M3/4	*M3/4
!	!Identical to Theme a	!	!
4D	4V	4r	4cc
=45	=45	=45	=45
2.D	2.V	2.r	(8bL
.	.	.	8ccJ
.	.	.	8ddL)
.	.	.	8cc'J
.	.	.	8b-'L
.	.	.	8a'J
=46	=46	=46	=46
2D	2V	4r	8g'L
.	.	.	8f'J
.	.	4r	8e'L
.	.	.	8d'J
4D	4V7d	4B-	(8cL
.	.	.	8eJ)
=47	=47	=47	=47
*	*	*^	*
4D	4Ib	2.c	4A	4f
.	.	.	.	(q32g
4D	4Vc	.	4G	(8fL)
.	.	.	.	8eJ
4D	4I	.	4F	8fL
.	.	.	.	8aJ)
=48	=48	=48	=48	=48
*	*	*	*	*^
4D	4Cc	2c	2C	(4f	4a
2D	2V	.	.	4e)	4g
*	*	*	*	*v	*v
*	*	*v	*v	*
.	.	4r	4cc
=49	=49	=49	=49
2.D	2.V	2.r	(8bL
.	.	.	8ccJ
.	.	.	8ddL)
.	.	.	8cc'J
.	.	.	8b-'L
.	.	.	8a'J
=50	=50	=50	=50
2D	2V	4r	8g'L
.	.	.	8f'J
.	.	4r	8e'L
.	.	.	8d'J
4D	4V7d	4BB-	(8cL
.	.	.	8eJ)
=51	=51	=51	=51
4T	4Ib	4AA	4f
4D	4Cc	4C	(8fL
.	.	.	8aJ)
*	*	*	*^
4D	4V7	4CC	(8gL	4B-
.	.	.	8eJ)	.
=52	=52	=52	=52	=52
2T	2I	4FF	4f	4A
*	*	*	*v	*v
.	.	4F	4r
*-	*-	*-	*-
!!!COM: Mozart
!!!OTL: 8 Variationen uber das Lied "Ein Weib ist das herrlichste Ding"
!!!Variation: Variation 1 b
**function	**harm	**kern	**kern
*	*	*clefF4	*clefG2
*	*	*k[b-]	*k[b-]
*F:	*F:	*F:	*F:
*M3/4	*M3/4	*M3/4	*M3/4
4T	4V	4r	8c'L
.	.	.	8c'J
=53	=53	=53	=53
2.T	2.I	2F	(8fL
.	.	.	8cJ
.	.	.	8AL)
.	.	.	(8fJ
.	.	4r	8aL
.	.	.	8fJ
=54	=54	=54	=54
2.T	2.V	2C	8gL
.	.	.	8eJ
.	.	.	8cL)
.	.	.	(8gJ
.	.	4r	8b-L
.	.	.	8gJ
=55	=55	=55	=55
4T	4I	(4F	8aL
.	.	.	8eJ
4T	4vi	4D	8fL
.	.	.	8c#J
4T	4iib	4BB-)	8dL
*	*	*	*^
.	.	.	8gJ)	8b-
=56	=56	=56	=56	=56
4T	4Cc	2C	(4f	4a
2T	2V	.	8eL)	8g
*	*	*	*v	*v
.	.	.	8cc'J
.	.	4r	8cc'L
.	.	.	8cc'J
=57	=57	=57	=57
4T	4Ib	(4A 4f	(8ddL
.	.	.	8ccJ)
4T	4V7c	4G 4e	(8ccL
.	.	.	8b-J)
4T	4I	4F) 4f	(8b-L
.	.	.	8aJ)
=58	=58	=58	=58
2.P	2.iib	2B- 2d	(8gL
.	.	.	8ddJ
.	.	.	8ccL
.	.	.	8b-J
.	.	4r	8aL
.	.	.	8gJ)
=59	=59	=59	=59
*	*	*^	*
4D	4Cc	(4A	2C	(8fL
.	.	.	.	8aJ)
2D	2V7	4B-)	.	(8gL
.	.	.	.	8b-J)
.	.	4G	4C	(8eL
.	.	.	.	8gJ)
=60	=60	=60	=60	=60
2T	2I	4A	4F	4f
*	*	*v	*v	*
.	.	4FF	4r
*-	*-	*-	*-
!!!COM: Mozart
!!!OTL: 8 Variationen uber das Lied "Ein Weib ist das herrlichste Ding"
!!!Variation: Variation 1 c
**function	**harm	**kern	**kern
*	*	*clefF4	*clefG2
*	*	*k[b-]	*k[b-]
*F:	*F:	*F:	*F:
*M3/4	*M3/4	*M3/4	*M3/4
4D	4V	4r	8e'L 8g'
.	.	.	8e'J 8g'
=61	=61	=61	=61
2.D	2.V	4CC	(8cL 8e
.	.	.	8eJ) 8g
.	.	4C	8r
.	.	.	8e' 8g'
.	.	4r	8e'L 8g'
.	.	.	8e'J 8g'
=62	=62	=62	=62
*	*	*	*^
2.D	2.V	4CC	(8ccL	4e
.	.	.	8gJ)	.
*	*	*	*v	*v
.	.	4C	8r
.	.	.	8e' 8g'
.	.	4r	8e'L 8g'
.	.	.	8e'J 8g'
=63	=63	=63	=63
2.D	2.V	4CC	(8cL 8e
.	.	.	8eJ) 8g
.	.	4C	8r
.	.	.	8e' 8g'
.	.	4r	8e'L 8g'
.	.	.	8e'J 8g'
=64	=64	=64	=64
2.D	2.V	4CC	4e 4cc
.	.	4C	4r
.	.	4r	8ee'L 8gg'
.	.	.	8ee'J 8gg'
=65	=65	=65	=65
2.D	2.V	4C	(8ccL 8ee
.	.	.	8eeJ) 8gg
.	.	4c	8r
.	.	.	8ee' 8gg'
.	.	4r	8ee'L 8gg'
.	.	.	8ee'J 8gg'
=66	=66	=66	=66
*	*	*	*^
2.D	2.V	4C	(8cccL	4ee
.	.	.	8ggJ)	.
*	*	*	*v	*v
.	.	4c	8r
.	.	.	8ee' 8gg'
.	.	4r	8ee'L 8gg'
.	.	.	8ee'J 8gg'
=67	=67	=67	=67
2.D	2.V	4C	(8ccL 8ee
.	.	.	8eeJ) 8gg
.	.	4c	8r
.	.	.	8ee' 8gg'
.	.	4r	8ee'L 8gg'
.	.	.	8ee'J 8gg'
=68	=68	=68	=68
2.D	2.V	4C	4ee 4ccc
.	.	4c	4r
.	.	4r	8c'L
.	.	.	8c'J
=69	=69	=69	=69
2.D	2.V	4CC 4C	(8BL
.	.	.	8cJ
.	.	4DD 4D	8c#L
.	.	.	8dJ
.	.	4EE 4E	8d#L
.	.	.	8eJ)
=70	=70	=70	=70
2.D	2.I	4FF 4F	(8g
.	.	.	4f
.	.	4EE 4E	.
.	.	.	4e
.	.	4FF 4F	.
.	.	.	8f)
=71	=71	=71	=71
2.D	2.vi	4DD 4D	(8c#L
.	.	.	8dJ
.	.	4EE 4E	8d#L
.	.	.	8eJ
.	.	4FF 4F	8fL
.	.	.	8f#J)
=72	=72	=72	=72
2.D	2.ii	4GG 4G	(8a
.	.	.	4g
.	.	4FF# 4F#	.
.	.	.	4f#
.	.	4GG 4G	.
.	.	.	8g)
=73	=73	=73	=73
2.D	2.viio	4EE 4E	(8d#L
.	.	.	8eJ
.	.	4FF 4F	8fL
.	.	.	8f#J
.	.	4GG 4G	8gL
.	.	.	8g#J)
=74	=74	=74	=74
2.D	2.iii	4AA 4A	(8b-
.	.	.	4a
.	.	4GG# 4G#	.
.	.	.	4g#
.	.	4AA 4A	.
.	.	.	8a)
=75	=75	=75	=75
*	*	*	*^
2.D	2.V7/V	4Gn	(8cc	2.d 2.f
.	.	.	4b	.
.	.	4GGn	.	.
.	.	.	4a	.
.	.	4Gn	.	.
.	.	.	8b)	.
=76	=76	=76	=76	=76
2.D	2.V	4CC 4C;	4.cc;	4e;
.	.	4r	.	.
*	*	*	*v	*v
.	.	.	8cc'
.	.	4r	8cc'L
.	.	.	8cc'J
=77	=77	=77	=77
2.D	2.Ic	2.r	(8bL
.	.	.	8ccJ
.	.	.	8ffL
.	.	.	8eeJ
.	.	.	8aaL
.	.	.	8ggJ
=78	=78	=78	=78
2.D	2.V	2.r	8cccL
.	.	.	8bbJ
.	.	.	8bb-L
.	.	.	8aaJ
.	.	.	8ggL
.	.	.	8ffJ
=79	=79	=79	=79
2.D	2.V	2.r	8eeL
.	.	.	8ddJ
.	.	.	8ccL
.	.	.	8bJ
.	.	.	8b-L
.	.	.	8aJ
=80	=80	=80	=80
4.D	4.V7	4.r	8f#L
.	.	.	8gJ
.	.	.	8b-L
*-	*-	*-	*-
!!!COM: Mozart
!!!OTL: 8 Variationen uber das Lied "Ein Weib ist das herrlichste Ding"
!!!Variation: Variation 1 d
**function	**harm	**kern	**kern
*	*	*clefF4	*clefG2
*	*	*k[b-]	*k[b-]
*F:	*F:	*F:	*F:
*M3/4	*M3/4	*M3/4	*M3/4
4.T	4.I	4.r	8cJ
.	.	.	8dL
.	.	.	8eJ
=81	=81	=81	=81
2.T	2.I	2F	8fL
.	.	.	8cJ
.	.	.	8AL)
.	.	.	(8fJ
.	.	4r	8aL
.	.	.	8fJ
=82	=82	=82	=82
2.T	2.V	2C	8gL
.	.	.	8eJ
.	.	.	8cL)
.	.	.	(8gJ
.	.	4r	8b-L
.	.	.	8gJ
=83	=83	=83	=83
4T	4I	(4F	8aL
.	.	.	8eJ
4T	4vi	4D	8fL
.	.	.	8c#J
4T	4iib	4BB-)	8dL
*	*	*	*^
.	.	.	8gJ)	8b-
=84	=84	=84	=84	=84
4T	4Cc	2C	(4f	4a
2T	2V	.	8eL)	8g
*	*	*	*v	*v
.	.	.	8cc'J
.	.	4r	8cc'L
.	.	.	8cc'J
=85	=85	=85	=85
4T	4Ib	(4A 4f	(8ddL
.	.	.	8ccJ)
4T	4V7c	4G 4e	(8ccL
.	.	.	8b-J)
4T	4I	4F) 4f	(8b-L
.	.	.	8aJ)
=86	=86	=86	=86
2.T	2.iib	2B- 2d	(8gL
.	.	.	8ddJ
.	.	.	8ccL
.	.	.	8b-J
.	.	4r	8aL
.	.	.	8gJ
=87	=87	=87	=87
*	*	*^	*
4T	4Cc	(4A	2.C	8fL
.	.	.	.	8f#J
2T	2V7	4B-	.	8gL)
.	.	.	.	(16b-L
.	.	.	.	16aJJ
.	.	4E)	.	16ccLL
.	.	.	.	16b-
.	.	.	.	16dd
.	.	.	.	16ccJJ)
=88	=88	=88	=88	=88
*	*	*	*	*^
2T	2I	2F	2FF	(4g	4b-
.	.	.	.	8fL)	8a
*	*	*	*	*v	*v
.	.	.	.	8cc'J
*	*	*v	*v	*
4T	4V	4r	8cc'L
.	.	.	8cc'J
=89	=89	=89	=89
4T	4Ib	(4A 4f	(8ddL
.	.	.	8ccJ)
4T	4V7c	4G 4e	(8ccL
.	.	.	8b-J)
4T	4I	4F) 4f	(8b-L
.	.	.	8aJ)
=90	=90	=90	=90
2.P	2.iib	2B- 2d	8g'L
.	.	.	(8ddJ 8ff
.	.	.	8ccL 8ee
.	.	.	8b-J 8dd
.	.	4r	8aL 8cc
.	.	.	8gJ) 8b-
=91	=91	=91	=91
*	*	*^	*
4D	4Cc	(4F	2.C	(8fL 8a
.	.	.	.	8ccJ
2D	2V7	4E	.	8b-L
.	.	.	.	8gJ
.	.	4B-)	.	8b-L
.	.	.	.	8eJ)
*	*	*v	*v	*
=92	=92	=92	=92
2T	2I	4F 4A	4f
.	.	4FF	4r
*-	*-	*-	*-
!!!COM: Mozart
!!!OTL: 8 Variationen uber das Lied "Ein Weib ist das herrlichste Ding"
!!!Variation: Variation 2 a
**function	**harm	**kern	**kern
*	*	*clefF4	*clefG2
*	*	*k[b-]	*k[b-]
*F:	*F:	*F:	*F:
*M3/4	*M3/4	*M3/4	*M3/4
4D	4V	4r	4cc
=93	=93	=93	=93
2.D	2.V	2.r	(8bL
.	.	.	8ccJ
.	.	.	8ddL)
.	.	.	8cc'J
.	.	.	(q32cc
.	.	.	8b-'L)
.	.	.	8a'J
=94	=94	=94	=94
.	.	.	(q32a
2D	2V	2r	8g'L)
.	.	.	(q32g
.	.	.	8f'J
.	.	.	8e'L)
.	.	.	8d'J
4D	4V7d	4B-	(8cL
.	.	.	8eJ)
=95	=95	=95	=95
4D	4Ib	(4A 4c	4f
.	.	.	(q32g
4D	4Vc	4G 4B-	(8fL)
.	.	.	8eJ)
4D	4I	4F) 4A	(8fL
.	.	.	8aJ)
=96	=96	=96	=96
*	*	*	*^
4D	4Cc	2C 2c	(4f	4a
2D	2V	.	4e)	4g
*	*	*	*v	*v
.	.	4r	4cc
=97	=97	=97	=97
2.D	2.V	2.r	(8bL
.	.	.	8ccJ
.	.	.	12eeL
.	.	.	12dd)
.	.	.	12cc'J
.	.	.	(12ccL
.	.	.	12b-)
.	.	.	12a'J
=98	=98	=98	=98
2D	2V	4r	(12aL
.	.	.	12g)
.	.	.	12f'J
.	.	4r	(12fL
.	.	.	12e)
.	.	.	12d'J
4D	4V7d	4BB-	(8cL
.	.	.	8eJ)
=99	=99	=99	=99
4T	4Ib	4AA	4f
4D	4Cc	4C	(8fL
.	.	.	8aJ)
*	*	*	*^
4D	4V7	4CC	(8gL	4B-
.	.	.	8eJ)	.
=100	=100	=100	=100	=100
2T	2I	4FF	4f	4A
*	*	*	*v	*v
.	.	4F	4r
*-	*-	*-	*-
!!!COM: Mozart
!!!OTL: 8 Variationen uber das Lied "Ein Weib ist das herrlichste Ding"
!!!Variation: Variation 2 b
**function	**harm	**kern	**kern
*	*	*clefF4	*clefG2
*	*	*k[b-]	*k[b-]
*F:	*F:	*F:	*F:
*M3/4	*M3/4	*M3/4	*M3/4
4T	4V	4r	4c
=101	=101	=101	=101
2.T	2.I	8r	4f
.	.	(8c	.
.	.	8B-L	4c
.	.	8AJ	.
.	.	8GL	(8.fL
.	.	8FJ	.
.	.	.	32eLL
.	.	.	32fJJJ
=102	=102	=102	=102
2.T	2.Vb	8EL	4g
.	.	8DJ	.
.	.	8CL	4c)
.	.	8BB-J	.
.	.	8AAL	(8.gL
.	.	8GGJ	.
.	.	.	32fLL
.	.	.	32gJJJ
=103	=103	=103	=103
4T	4I	8FFL	4a
.	.	8EEJ	.
4T	4vi	8DDL	4f)
.	.	8CCJ	.
*	*	*	*^
4T	4ii	8BBB-L	4g	4b-
.	.	8GGGJ)	.	.
=104	=104	=104	=104	=104
4T	4Cc	8CC'L	(4f	4a
.	.	(8CJ	.	.
4T	4V	8DL	4e)	4g
.	.	8CJ	.	.
*	*	*	*v	*v
4T	4V7d	8BBL	4cc
.	.	8BB-J)	.
=105	=105	=105	=105
.	.	.	(q32b
.	.	.	q32cc
.	.	.	q32dd
4T	4Ib	(8AAL	(4cc)
.	.	8FJ	.
4T	4viiob	8GGL	4b-
.	.	8EJ	.
4T	4I	8FFL	4a)
.	.	8FJ)	.
=106	=106	=106	=106
*	*	*^	*
2.P	2.iib	(8BB-L	2.BB-	(4dd
.	.	8DJ	.	.
.	.	8F#L	.	8ccL
.	.	8GJ	.	8b-J
.	.	8AL	.	8aL
.	.	8B-J)	.	8gJ)
*	*	*v	*v	*
=107	=107	=107	=107
4D	4Cc	8CL	(4A 4f
.	.	8DJ	.
4D	4ii	8BB-L	4B-) 4g
.	.	8GGJ	.
4D	4V	8CL	4G 4e
.	.	8CCJ	.
=108	=108	=108	=108
2T	2I	4FF	4A 4f
.	.	4F	4r
*-	*-	*-	*-
!!!COM: Mozart
!!!OTL: 8 Variationen uber das Lied "Ein Weib ist das herrlichste Ding"
!!!Variation: Variation 2 c
**function	**harm	**kern	**kern
*	*	*clefF4	*clefG2
*	*	*k[b-]	*k[b-]
*F:	*F:	*F:	*F:
*M3/4	*M3/4	*M3/4	*M3/4
*	*	*	*^
4D	4V	4r	4g'	4e
=109	=109	=109	=109	=109
2.D	2.V	8CCL	(4e	2c
.	.	(8CJ	.	.
.	.	8EL)	4g)	.
.	.	8C'J	.	.
.	.	8GG'L	4g'	4e
.	.	8EE'J	.	.
=110	=110	=110	=110	=110
2.D	2.V	8CCL	(4cc	2e
.	.	(8CJ	.	.
.	.	8EL)	4g)	.
.	.	8C'J	.	.
.	.	8GG'L	4g'	4e
.	.	8EE'J	.	.
=111	=111	=111	=111	=111
2.D	2.V	8CCL	(4e	2c
.	.	(8CJ	.	.
.	.	8EL)	4g)	.
.	.	8C'J	.	.
.	.	8GG'L	4g'	4e
.	.	8EE'J	.	.
=112	=112	=112	=112	=112
2.D	2.V	4CC'	4cc'	4e
.	.	4C'	4r	4r
.	.	4r	4gg'	4ee
=113	=113	=113	=113	=113
2.D	2.V	8CL	(4ee	2cc
.	.	(8cJ	.	.
.	.	8eL)	4gg)	.
.	.	8c'J	.	.
.	.	8G'L	4gg'	4ee
.	.	8E'J	.	.
=114	=114	=114	=114	=114
2.D	2.V	8CL	(4ccc	2ee
.	.	(8cJ	.	.
.	.	8eL)	4gg)	.
.	.	8c'J	.	.
.	.	8G'L	4gg'	4ee
.	.	8E'J	.	.
=115	=115	=115	=115	=115
2.D	2.V	8CL	(4ee	2cc
.	.	(8cJ	.	.
.	.	8eL)	4gg)	.
.	.	8c'J	.	.
.	.	8G'L	4gg'	4ee
.	.	8E'J	.	.
=116	=116	=116	=116	=116
2.D	2.V	4C'	4ccc'	4ee
*	*	*	*v	*v
.	.	4c'	4r
.	.	(8CCL	4c
.	.	8CJ)	.
=117	=117	=117	=117
2.D	2.V	(8CCL	(4c
.	.	8CJ	.
.	.	8DDL	4d
.	.	8DJ	.
.	.	8EEL	4e)
.	.	8EJ)	.
=118	=118	=118	=118
2.D	2.I	(8FFL	(8.fL
.	.	8FJ	.
.	.	.	32gLL
.	.	.	32fJJJ
.	.	8EEL	4e
.	.	8EJ	.
.	.	8FFL	4f)
.	.	8FJ)	.
=119	=119	=119	=119
2.D	2.vi	(8DDL	(4d
.	.	8DJ	.
.	.	8EEL	4e
.	.	8EJ	.
.	.	8FFL	4f)
.	.	8FJ)	.
=120	=120	=120	=120
2.D	2.ii	(8GGL	(8.gL
.	.	8GJ	.
.	.	.	32aLL
.	.	.	32gJJJ
.	.	8FF#L	4f#
.	.	8F#J	.
.	.	8GGL	4g)
.	.	8GJ)	.
=121	=121	=121	=121
2.D	2.viio	(8EEL	(4e
.	.	8EJ	.
.	.	8FFL	4f
.	.	8FJ	.
.	.	8GGL	4g)
.	.	8GJ)	.
=122	=122	=122	=122
2.D	2.iii	(8AAL	(8.aL
.	.	8AJ	.
.	.	.	32b-LL
.	.	.	32aJJJ
.	.	8GG#L	4g#
.	.	8G#J	.
.	.	8AAL	4a)
.	.	8AJ)	.
=123	=123	=123	=123
*	*	*	*^
2.D	2.V7/V	(8GGL	(8.bL	2.d 2.f
.	.	8GJ	.	.
.	.	.	32ccLL	.
.	.	.	32bJJJ	.
.	.	8FF#L	4a	.
.	.	8F#J	.	.
.	.	8GGL	4b)	.
.	.	8GJ)	.	.
=124	=124	=124	=124	=124
2.D	2.V	[4CC;	4cc;	4e
*	*	*	*v	*v
.	.	(12CCL]	4r
.	.	12EE	.
.	.	12GGJ	.
.	.	12CL	4r
.	.	12E	.
.	.	12GJ	.
*	*	*clefG2	*
=125	=125	=125	=125
2.D	2.V7	8cL	2.r
.	.	8eJ	.
.	.	8gL	.
.	.	8aJ	.
.	.	8ccL	.
.	.	8b-J	.
=126	=126	=126	=126
2.D	2.V7	8aL	2.r
.	.	8gJ	.
.	.	8fL	.
.	.	8eJ	.
.	.	8dL	.
.	.	8cJ	.
*	*	*clefF4	*
=127	=127	=127	=127
2D	2V7	8BL	2r
.	.	8B-J	.
.	.	8AL	.
.	.	8cJ	.
*-	*-	*-	*-
!!!COM: Mozart
!!!OTL: 8 Variationen uber das Lied "Ein Weib ist das herrlichste Ding"
!!!Variation: Variation 2 d
**function	**harm	**kern	**kern
*	*	*clefF4	*clefG2
*	*	*k[b-]	*k[b-]
*F:	*F:	*F:	*F:
*M3/4	*M3/4	*M3/4	*M3/4
4T	4V7d	8B-L	4c
.	.	8GJ	.
=128	=128	=128	=128
2.T	2.Ib	8AL	4f
.	.	8cJ	.
.	.	8B-L	4c
.	.	8AJ	.
.	.	8GL	(8.fL
.	.	8FJ	.
.	.	.	32eLL
.	.	.	32fJJJ
=129	=129	=129	=129
2.T	2.Vb	8EL	4g
.	.	8DJ	.
.	.	8CL	4c)
.	.	8BB-J	.
.	.	8AAL	(8.gL
.	.	8GGJ	.
.	.	.	32fLL
.	.	.	32gJJJ
=130	=130	=130	=130
4T	4I	8FFL	4a
.	.	8EEJ	.
4T	4vi	8DDL	4f)
.	.	8CCJ	.
*	*	*	*^
4T	4ii	8BBB-L	4g	4b-
.	.	8GGGJ	.	.
=131	=131	=131	=131	=131
4T	4Cc	8CC'L)	(4f	4a
.	.	(8CJ	.	.
4T	4V	8DL	4e)	4g
.	.	8CJ	.	.
*	*	*	*v	*v
4T	4V7d	8BBL	4cc
.	.	8BB-J)	.
=132	=132	=132	=132
.	.	.	(q32b
.	.	.	q32cc
.	.	.	q32dd
4T	4Ib	(8AAL	(4cc)
.	.	8FJ	.
4T	4viiob	8GGL	4b-
.	.	8EJ	.
4T	4I	8FFL	4a)
.	.	8FJ)	.
=133	=133	=133	=133
*	*	*^	*
2.T	2.iib	(8BB-L	2.BB-	(4dd
.	.	8DJ	.	.
.	.	8F#L	.	8ccL
.	.	8GJ	.	8b-J
.	.	8AL	.	8aL
.	.	8B-J)	.	8gJ)
*	*	*v	*v	*
=134	=134	=134	=134
4T	4Cc	(8CL	(4A 4f
.	.	8DJ	.
8T	8ii7b	8BB-L	4d) 4f 4g
8T	8V7b/V	8BBJ	.
4T	4V	8CL)	4e 4cc
.	.	8CC'J	.
=135	=135	=135	=135
2T	2vi	8DD'L	(4g 4b-
.	.	(8c#J	.
.	.	8eL	4f) 4a
.	.	8dJ	.
4T	4V7d	8cL	4e 4g 4cc
.	.	8B-J	.
=136	=136	=136	=136
.	.	.	(q32b
.	.	.	q32cc
.	.	.	q32dd
4T	4Ib	8AL	(4cc)
.	.	8fJ	.
4T	4viiob	8GL	4b-
.	.	8eJ	.
4T	4I	8FL	4a)
.	.	8fJ)	.
=137	=137	=137	=137
*	*	*^	*
2.P	2.ii7b	(8BB-L	2.BB-	(4dd 4ff
.	.	8DJ	.	.
.	.	8F#L	.	8ccL 8ee
.	.	8GJ	.	8b-J 8dd
.	.	8AL	.	8aL 8cc
.	.	8B-J)	.	8gJ) 8b-
*	*	*v	*v	*
=138	=138	=138	=138
4D	4Cc	(8CL	(4f 4a
.	.	8DJ	.
4D	4ii	8BB-L	4g) 4b-
.	.	8GGJ	.
4D	4V7	8CL	4B- 4e 4g
.	.	8CCJ)	.
=139	=139	=139	=139
2T	2I	4FF	4A 4f
.	.	4F	4r
*-	*-	*-	*-
!!!COM: Mozart
!!!OTL: 8 Variationen uber das Lied "Ein Weib ist das herrlichste Ding"
!!!Variation: Variation 3 a
**function	**harm	**kern	**kern
*	*	*clefF4	*clefG2
*	*	*k[b-]	*k[b-]
*F:	*F:	*F:	*F:
*M3/4	*M3/4	*M3/4	*M3/4
4D	4V	4r	4cc
=140	=140	=140	=140
2.D	2.V	2.r	(8bL
.	.	.	8ccJ
.	.	.	8ddL)
.	.	.	8cc'J
.	.	.	8b-'L
.	.	.	8a'J
=141	=141	=141	=141
2D	2V	2r	8g'L
.	.	.	8f'J
.	.	.	8e'L
.	.	.	8d'J
4D	4V7d	4BB-	(8cL
.	.	.	8eJ)
=142	=142	=142	=142
4D	4Ib	(4AA	4f
.	.	.	(q32g
4D	4Vc	4GG	(8fL)
.	.	.	8eJ
4D	4I	4FF)	8fL
*	*	*	*^
.	.	.	8aJ)	8f
=143	=143	=143	=143	=143
4D	4Cc	2CC 2C	(4a	(4f
2D	2V	.	4g)	4e)
*	*	*	*v	*v
*	*	*clefG2	*
.	.	4cc	4ccc
=144	=144	=144	=144
2.D	2.V	(8bL	(8bbL
.	.	8ccJ	8cccJ
.	.	8ddL)	8dddL)
.	.	8cc'J	8ccc'J
.	.	8b-'L	8bb-'L
.	.	8a'J	8aa'J
=145	=145	=145	=145
2D	2V	8g'L	8gg'L
.	.	8f'J	8ff'J
.	.	8e'L	8ee'L
.	.	8d'J	8dd'J
4D	4V7d	(8cL	(8ccL
.	.	8B-J)	8eeJ)
=146	=146	=146	=146
4T	4Ib	4A	4ff
*	*	*	*^
.	.	.	(q32gg	.
.	.	.	q32ff	.
.	.	.	q32ee	.
4D	4Cc	4c	(8ffL)	4cc
.	.	.	8aaJ)	.
*	*	*clefF4	*	*
4D	4V	4C	(8ggL	4b-
.	.	.	8eeJ)	.
=147	=147	=147	=147	=147
2T	2I	4F	4ff	4a
*	*	*	*v	*v
.	.	4FF	4r
*-	*-	*-	*-
!!!COM: Mozart
!!!OTL: 8 Variationen uber das Lied "Ein Weib ist das herrlichste Ding"
!!!Variation: Variation 3 b
**function	**harm	**kern	**kern
*	*	*clefF4	*clefG2
*	*	*k[b-]	*k[b-]
*F:	*F:	*F:	*F:
*M3/4	*M3/4	*M3/4	*M3/4
4T	4V	4r	4c
=148	=148	=148	=148
2.T	2.I	2.r	12fL
*	*	*	*clefF4
.	.	.	(12FF
.	.	.	12CJ
.	.	.	(12A
.	.	.	12FL)
*	*	*	*clefG2
.	.	.	12cJ
.	.	.	12fL
.	.	.	12c
.	.	.	12aJ
=149	=149	=149	=149
2.T	2.V7	2.r	12gL)
*	*	*	*clefF4
.	.	.	(12CC
.	.	.	12GGJ
.	.	.	12CL)
*	*	*	*clefG2
.	.	.	(12c
.	.	.	12eJ
.	.	.	12gL
.	.	.	12e
.	.	.	12b-J)
=150	=150	=150	=150
4T	4I	(4F	12r
.	.	.	(12g#L
.	.	.	12aJ)
4T	4vi	4D	12r
.	.	.	(12eL
.	.	.	12fJ)
4T	4iib	4BB-)	12r
.	.	.	(12dL
*	*	*	*^
.	.	.	12gJ)	12b-
=151	=151	=151	=151	=151
4T	4Cc	2C	(4f	4a
2T	2V	.	4e)	4g
*	*	*	*v	*v
.	.	4r	8.ccL
.	.	.	16ccJk
=152	=152	=152	=152
.	.	.	(q32b
.	.	.	q32cc
.	.	.	q32dd
4T	4Ib	2.r	16ccLL)
*	*	*	*clefF4
.	.	.	(16A
.	.	.	16f)
*	*	*	*clefG2
.	.	.	(16ccJJ
4T	4viiob	.	16b-LL)
*	*	*	*clefF4
.	.	.	(16G
.	.	.	16e)
*	*	*	*clefG2
.	.	.	(16b-JJ
4T	4I	.	16aLL)
*	*	*	*clefF4
.	.	.	(16F
.	.	.	16f)
*	*	*	*clefG2
.	.	.	16aJJ
=153	=153	=153	=153
2.P	2.iib	2.BBB- 2.BB-	12r
.	.	.	(12gL
.	.	.	12ddJ
.	.	.	12cc#L
.	.	.	12cc
.	.	.	12bJ
.	.	.	12b-L
.	.	.	12a
.	.	.	12gJ)
=154	=154	=154	=154
2D	2Cc	4CC 4C	(12fL
.	.	.	12c
.	.	.	12aJ
.	.	4r	12fL
.	.	.	12cc
.	.	.	12aJ
*	*	*^	*
4D	4V7	8GL	4C	12b-L
.	.	.	.	12g
.	.	8B-J	.	.
.	.	.	.	12eJ)
=155	=155	=155	=155	=155
2T	2I	4A	4F	4f
*	*	*v	*v	*
.	.	4FF	4r
*-	*-	*-	*-
!!!COM: Mozart
!!!OTL: 8 Variationen uber das Lied "Ein Weib ist das herrlichste Ding"
!!!Variation: Variation 3 c
**function	**harm	**kern	**kern
*	*	*clefF4	*clefG2
*	*	*k[b-]	*k[b-]
*F:	*F:	*F:	*F:
*M3/4	*M3/4	*M3/4	*M3/4
4D	4V	4r	4e 4g
=156	=156	=156	=156
2.D	2.V	2.CC 2.GG 2.C	12eL
.	.	.	12c
.	.	.	12GJ
.	.	.	12gL
.	.	.	12e
.	.	.	12GJ
.	.	.	12gL
.	.	.	12e
.	.	.	12GJ
=157	=157	=157	=157
2.D	2.V	2.CC 2.GG 2.C	12ccL
.	.	.	12e
.	.	.	12cJ
.	.	.	12gL
.	.	.	12e
.	.	.	12GJ
.	.	.	12gL
.	.	.	12e
.	.	.	12GJ
=158	=158	=158	=158
2.D	2.V	2.CC 2.GG 2.C	12eL
.	.	.	12c
.	.	.	12GJ
.	.	.	12gL
.	.	.	12e
.	.	.	12GJ
.	.	.	12gL
.	.	.	12e
.	.	.	12GJ
=159	=159	=159	=159
2.D	2.V	4CC'	4e 4cc
.	.	4C'	4r
.	.	4r	4ee' 4gg'
=160	=160	=160	=160
2.D	2.V	(12CL	(4cc 4ee
.	.	12E	.
.	.	12GJ	.
.	.	12cL	4ee) 4gg
.	.	12e	.
.	.	12cJ	.
.	.	12GL	4ee' 4gg'
.	.	12E	.
.	.	12GJ	.
=161	=161	=161	=161
2.D	2.V	12CL	(4ee 4ccc
.	.	12E	.
.	.	12GJ	.
.	.	12cL	4ee) 4gg
.	.	12e	.
.	.	12cJ	.
.	.	12GL	4ee' 4gg'
.	.	12E	.
.	.	12GJ	.
=162	=162	=162	=162
2.D	2.V	12CL	(4cc 4ee
.	.	12E	.
.	.	12GJ	.
.	.	12cL	4ee) 4gg
.	.	12e	.
.	.	12cJ	.
.	.	12GL	4ee' 4gg'
.	.	12E	.
.	.	12GJ	.
=163	=163	=163	=163
2.D	2.V	4C')	4ee 4ccc
.	.	4c'	4r
.	.	4r	4c
=164	=164	=164	=164
2.D	2.V	4CC 4C	12r
.	.	.	(12cL
.	.	.	12ccJ)
.	.	4DD 4D	12r
.	.	.	(12dL
.	.	.	12ddJ)
.	.	4EE 4E	12r
.	.	.	(12eL
.	.	.	12eeJ)
=165	=165	=165	=165
2.D	2.I	4FF 4F	12r
.	.	.	(12fL
.	.	.	12ffJ)
.	.	4EE 4E	12r
.	.	.	(12eL
.	.	.	12eeJ)
.	.	4FF 4F	12r
.	.	.	(12fL
.	.	.	12ffJ)
=166	=166	=166	=166
2.D	2.vi	4DD 4D	12r
.	.	.	(12dL
.	.	.	12ddJ)
.	.	4EE 4E	12r
.	.	.	(12eL
.	.	.	12eeJ)
.	.	4FF 4F	12r
.	.	.	(12fL
.	.	.	12ffJ)
=167	=167	=167	=167
2.D	2.ii	4GG 4G	12r
.	.	.	(12gL
.	.	.	12ggJ)
.	.	4FF# 4F#	12r
.	.	.	(12f#L
.	.	.	12ff#J)
.	.	4GG 4G	12r
.	.	.	(12gL
.	.	.	12ggJ)
=168	=168	=168	=168
2.D	2.viio	4EE 4E	12r
.	.	.	(12eL
.	.	.	12eeJ)
.	.	4FF 4F	12r
.	.	.	(12fL
.	.	.	12ffJ)
.	.	4GG 4G	12r
.	.	.	(12gL
.	.	.	12ggJ)
=169	=169	=169	=169
2.D	2.iii	4AA 4A	12r
.	.	.	(12aL
.	.	.	12aaJ)
.	.	4GG# 4G#	12r
.	.	.	(12g#L
.	.	.	12gg#J)
.	.	4AA 4A	12r
.	.	.	(12aL
.	.	.	12aaJ)
=170	=170	=170	=170
2.D	2.viio/V	4BB 4B	12r
.	.	.	(12bL
.	.	.	12bbJ)
.	.	4AA 4A	12r
.	.	.	(12aL
.	.	.	12aaJ)
.	.	4BB 4B	12r
.	.	.	(12bL
.	.	.	12bbJ)
=171	=171	=171	=171
2.D	2.V	4C 4c	4cc 4ccc
.	.	4r	(12cccL
.	.	.	12eee
.	.	.	12ggJ
.	.	6r	12cccL
.	.	.	12cc
.	.	(12g	12ggJ
=172	=172	=172	=172
2.D	2.V	12cL	12ccL
.	.	12e	12ee
.	.	12GJ	12gJ
.	.	12cL	12ccL
.	.	12E	12e
.	.	12GJ	12gJ
.	.	12CL	12cL
.	.	12E	12e
.	.	12GGJ	12GJ
=173	=173	=173	=173
2.D	2.V7	4C)	12cL
.	.	.	12g
.	.	.	12eJ
.	.	4r	12b-L
.	.	.	12g
.	.	.	12ddJ
.	.	4r	12ccL
.	.	.	12b-
.	.	.	12aJ
=174	=174	=174	=174
2.D	2.V7	2.r	12gL
.	.	.	12f
.	.	.	12eJ
.	.	.	12dL
.	.	.	12c
.	.	.	12c#J
.	.	.	12dL
.	.	.	12e-
.	.	.	12eJ
*-	*-	*-	*-
!!!COM: Mozart
!!!OTL: 8 Variationen uber das Lied "Ein Weib ist das herrlichste Ding"
!!!Variation: Variation 3 d
**function	**harm	**kern	**kern
*	*	*clefF4	*clefG2
*	*	*k[b-]	*k[b-]
*F:	*F:	*F:	*F:
*M3/4	*M3/4	*M3/4	*M3/4
=175	=175	=175	=175
2.T	2.I	2.r	12fL)
*	*	*	*clefF4
.	.	.	(12FF
.	.	.	12CJ
.	.	.	12FL)
*	*	*	*clefG2
.	.	.	(12A
.	.	.	12cJ
.	.	.	12fL
.	.	.	12c
.	.	.	12aJ
=176	=176	=176	=176
2.T	2.V	2.r	12gL)
*	*	*	*clefF4
.	.	.	(12CC
.	.	.	12GGJ
.	.	.	12CL)
*	*	*	*clefG2
.	.	.	(12c
.	.	.	12eJ
.	.	.	12gL
.	.	.	12e
.	.	.	12b-J)
=177	=177	=177	=177
4T	4I	(4F	12r
.	.	.	(12g#L
.	.	.	12aJ)
4T	4vi	4D	12r
.	.	.	(12eL
.	.	.	12fJ)
4T	4iib	4BB-)	12r
.	.	.	(12dL
*	*	*	*^
.	.	.	12gJ)	12b-
=178	=178	=178	=178	=178
4T	4Cc	2C	(4f	4a
2T	2V	.	4e)	4g
*	*	*	*v	*v
.	.	4r	8.ccL
.	.	.	16ccJk
=179	=179	=179	=179
.	.	.	(q32b
.	.	.	q32cc
.	.	.	q32dd
4T	4Ib	2.r	16ccLL)
*	*	*	*clefF4
.	.	.	(16A
.	.	.	16f)
*	*	*	*clefG2
.	.	.	(16ccJJ
4T	4viiob	.	16b-LL)
*	*	*	*clefF4
.	.	.	(16G
.	.	.	16e)
*	*	*	*clefG2
.	.	.	(16b-JJ
4T	4I	.	16aLL)
*	*	*	*clefF4
.	.	.	(16F
.	.	.	16f)
*	*	*	*clefG2
.	.	.	16aJJ
=180	=180	=180	=180
2.T	2.iib	2.BBB- 2.BB-	12r
.	.	.	(12gL
.	.	.	12ddJ
.	.	.	12cc#L
.	.	.	12cc
.	.	.	12bJ
.	.	.	12b-L
.	.	.	12a
.	.	.	12gJ
=181	=181	=181	=181
2T	2Cc	2.CC 2.C	12fL
.	.	.	12A
.	.	.	12cJ
.	.	.	12fL
.	.	.	12c
.	.	.	12aJ
4T	4V7	.	12gL
.	.	.	12e
.	.	.	12ccJ)
=182	=182	=182	=182
*	*	*	*^
2T	2I	2FF 2F	(4e	4g 4b-
.	.	.	4f)	4a
*	*	*	*v	*v
4T	4V	4r	8.ccL
.	.	.	16ccJk
=183	=183	=183	=183
.	.	.	(q32b
.	.	.	q32cc
.	.	.	q32dd
4T	4Ib	2.r	16ccLL)
*	*	*	*clefF4
.	.	.	(16A
.	.	.	16f)
*	*	*	*clefG2
.	.	.	(16ccJJ
4T	4viiob	.	16b-LL)
*	*	*	*clefF4
.	.	.	(16G
.	.	.	16e)
*	*	*	*clefG2
.	.	.	(16b-JJ
4T	4I	.	16aLL)
*	*	*	*clefF4
.	.	.	(16F
.	.	.	16f)
*	*	*	*clefG2
.	.	.	16aJJ
=184	=184	=184	=184
2.P	2.ii7b	2.BB- 2.B-	12r
.	.	.	12gL
.	.	.	(12ddJ 12ff
.	.	.	12cc#L 12ee
.	.	.	12cc 12ee-
.	.	.	12b-J 12dd
.	.	.	12aL 12cc#
.	.	.	12b-) 12dd
.	.	.	12g'J 12b-'
=185	=185	=185	=185
2D	2Cc	4C 4c	(12aL
.	.	.	12cc
.	.	.	12fJ
.	.	4r	12ffL
.	.	.	12cc
.	.	.	12aJ
*	*	*^	*^
4D	4V7	8GL	4C	12ccL	4e
.	.	.	.	12b-	.
.	.	8B-J	.	.	.
.	.	.	.	12gJ	.
=186	=186	=186	=186	=186	=186
2T	2I	4A	4F	4f)	4f
*	*	*	*	*v	*v
*	*	*v	*v	*
.	.	4r	4FF
*-	*-	*-	*-
!!!COM: Mozart
!!!OTL: 8 Variationen uber das Lied "Ein Weib ist das herrlichste Ding"
!!!Variation: Variation 4 a
**function	**harm	**kern	**kern
*	*	*clefF4	*clefG2
*	*	*k[b-]	*k[b-]
*F:	*F:	*F:	*F:
*M3/4	*M3/4	*M3/4	*M3/4
4D	4V	4r	4cc
=187	=187	=187	=187
2.D	2.V	2.r	(16bLL
.	.	.	16cc
.	.	.	16b
.	.	.	16ccJJ
.	.	.	8ddL)
.	.	.	8cc'J
.	.	.	8b-'L
.	.	.	8a'J
=188	=188	=188	=188
2D	2V	2r	8g'L
.	.	.	8f'J
.	.	.	8e'L
.	.	.	8d'J
4D	4V7d	4B-	(8cL
.	.	.	8eJ)
=189	=189	=189	=189
4D	4Ib	(4A 4c	4f
.	.	.	(q32g
4D	4Vc	4G 4B-	(8fL)
.	.	.	8eJ)
4D	4I	4F) 4A	(8fL
.	.	.	8aJ)
=190	=190	=190	=190
*	*	*	*^
4D	4Cc	2C 2c	(4f	4a
2D	2V	.	4e)	4g
*	*	*	*v	*v
*	*	*clefG2	*
.	.	(4cc	(4ccc
=191	=191	=191	=191
2.D	2.V	8bL)	8bbL)
.	.	8cc'J	8ccc'J
.	.	8dd'L	(16dddLL
.	.	.	16eee
.	.	8cc'J	16ccc
.	.	.	16dddJJ
.	.	8b-'L	16bb-LL
.	.	.	16ccc
.	.	8a'J	16aa
.	.	.	16bb-JJ
=192	=192	=192	=192
2D	2V	8g'L	16ggLL
.	.	.	16aa
.	.	8f'J	16ff
.	.	.	16ggJJ
.	.	8e'L	16eeLL
.	.	.	16ff
.	.	8d'J	16dd
.	.	.	16eeJJ
4D	4V7d	8c'L	8ccL
.	.	8B-'J	8eeJ)
=193	=193	=193	=193
4T	4Ib	4A	4ff
4D	4Cc	4c	(8ffL
.	.	.	8aaJ)
*	*	*clefF4	*
*	*	*	*^
4D	4V7	4C	(8ggL	4b-
.	.	.	8eeJ)	.
=194	=194	=194	=194	=194
2T	2I	4F	4ff	4a
*	*	*	*v	*v
.	.	4FF	4r
*-	*-	*-	*-
!!!COM: Mozart
!!!OTL: 8 Variationen uber das Lied "Ein Weib ist das herrlichste Ding"
!!!Variation: Variation 4 b
**function	**harm	**kern	**kern
*	*	*clefF4	*clefG2
*	*	*k[b-]	*k[b-]
*F:	*F:	*F:	*F:
*M3/4	*M3/4	*M3/4	*M3/4
4T	4V	4r	4c
=195	=195	=195	=195
2.T	2.I	16r	(4f
.	.	16FFLL	.
.	.	16AA	.
.	.	16CJJ	.
.	.	16FLL	4c)
.	.	16A	.
.	.	16c	.
.	.	16AJJ	.
.	.	16FLL	4f'
.	.	16C	.
.	.	16AA	.
.	.	16FFJJ	.
=196	=196	=196	=196
2.T	2.V	16r	(4g
.	.	16CCLL	.
.	.	16EE	.
.	.	16GGJJ	.
.	.	16CLL	4c)
.	.	16E	.
.	.	16G	.
.	.	16EJJ	.
.	.	16CLL	4g'
.	.	16GG	.
.	.	16EE	.
.	.	16CCJJ	.
=197	=197	=197	=197
4T	4I	16FFLL	(4a
.	.	16AA	.
.	.	16C	.
.	.	16FJJ	.
4T	4vi	16DDLL	4f)
.	.	16FF	.
.	.	16AA	.
.	.	16DJJ	.
*	*	*	*^
4T	4iib	16BBB-LL	4b-	4g
.	.	16DD	.	.
.	.	16GG	.	.
.	.	16BB-JJ	.	.
=198	=198	=198	=198	=198
4T	4Cc	16CCLL	(4a	4f
.	.	16FF	.	.
.	.	16AA	.	.
.	.	16CJJ	.	.
4T	4V	16BBLL	4g)	4e
.	.	16C	.	.
.	.	16D	.	.
.	.	16CJJ	.	.
4T	4V7d	16AALL	4cc	4e
.	.	16BB-	.	.
.	.	16C	.	.
.	.	16BB-JJ	.	.
=199	=199	=199	=199	=199
4T	4Ib	16AALL	(4cc	4f
.	.	16C	.	.
.	.	16F	.	.
.	.	16AAJJ	.	.
4T	4V7c	16GGLL	4b-	4e
.	.	16C	.	.
.	.	16E	.	.
.	.	16GGJJ	.	.
4T	4I	16FFLL	4a)	4f
.	.	16C	.	.
.	.	16F	.	.
.	.	16FFJJ	.	.
=200	=200	=200	=200	=200
2P	2IV	16BB-LL	(4dd	2.d
.	.	16F	.	.
.	.	16D	.	.
.	.	16FJJ	.	.
.	.	16BB-LL	4b-	.
.	.	16F#	.	.
.	.	16D	.	.
.	.	16F#JJ	.	.
4P	4iib	16BB-LL	4g)	.
.	.	16G	.	.
.	.	16D	.	.
.	.	16GJJ	.	.
*	*	*	*v	*v
=201	=201	=201	=201
4D	4Cc	16CLL	(8.fL
.	.	16c	.
.	.	16A	.
.	.	16cJJ	32eLL
.	.	.	32fJJJ
2D	2V7	16CLL	4g)
.	.	16c	.
.	.	16B-	.
.	.	16cJJ	.
.	.	16CLL	4e'
.	.	16B-	.
.	.	16G	.
.	.	16B-JJ	.
=202	=202	=202	=202
2T	2I	4F 4A	4f'
.	.	4FF	4r
*-	*-	*-	*-
!!!COM: Mozart
!!!OTL: 8 Variationen uber das Lied "Ein Weib ist das herrlichste Ding"
!!!Variation: Variation 4 c
**function	**harm	**kern	**kern
*	*	*clefF4	*clefG2
*	*	*k[b-]	*k[b-]
*F:	*F:	*F:	*F:
*M3/4	*M3/4	*M3/4	*M3/4
4D	4V	4r	4e' 4g'
=203	=203	=203	=203
2.D	2.V	16CCLL	(4c 4e
.	.	16C	.
.	.	16BB	.
.	.	16CJJ	.
.	.	16ELL	4g)
.	.	16C	.
.	.	16BB	.
.	.	16CJJ	.
.	.	16GGLL	4e' 4g'
.	.	16C	.
.	.	16EE	.
.	.	16GGJJ	.
=204	=204	=204	=204
2.D	2.V	16CCLL	(4e 4cc
.	.	16C	.
.	.	16BB	.
.	.	16CJJ	.
.	.	16ELL	4g)
.	.	16C	.
.	.	16BB	.
.	.	16CJJ	.
.	.	16GGLL	4g'
.	.	16C	.
.	.	16EE	.
.	.	16GGJJ	.
=205	=205	=205	=205
2.D	2.V	16CCLL	(4c 4e
.	.	16C	.
.	.	16BB	.
.	.	16CJJ	.
.	.	16ELL	4g)
.	.	16C	.
.	.	16BB	.
.	.	16CJJ	.
.	.	16GGLL	4e' 4g'
.	.	16C	.
.	.	16EE	.
.	.	16GGJJ	.
=206	=206	=206	=206
2.D	2.V	4CC	4e' 4cc'
.	.	4C	4r
.	.	4r	4ee' 4gg'
=207	=207	=207	=207
2.D	2.V	16CLL	(4cc 4ee
.	.	16c	.
.	.	16B	.
.	.	16cJJ	.
.	.	16eLL	4gg)
.	.	16c	.
.	.	16B	.
.	.	16cJJ	.
.	.	16GLL	4ee' 4gg'
.	.	16c	.
.	.	16E	.
.	.	16GJJ	.
=208	=208	=208	=208
2.D	2.V	16CLL	(4ee 4ccc
.	.	16c	.
.	.	16B	.
.	.	16cJJ	.
.	.	16eLL	4gg)
.	.	16c	.
.	.	16B	.
.	.	16cJJ	.
.	.	16GLL	4gg'
.	.	16c	.
.	.	16E	.
.	.	16GJJ	.
=209	=209	=209	=209
2.D	2.V	16CLL	(4cc 4ee
.	.	16c	.
.	.	16B	.
.	.	16cJJ	.
.	.	16eLL	4gg)
.	.	16c	.
.	.	16B	.
.	.	16cJJ	.
.	.	16GLL	4ee' 4gg'
.	.	16c	.
.	.	16E	.
.	.	16GJJ	.
=210	=210	=210	=210
2.D	2.V	4C	4ee 4ccc
.	.	4c	4r
.	.	4r	4cc
=211	=211	=211	=211
2D	2V	16CLL	(4cc
.	.	16c	.
.	.	16B	.
.	.	16cJJ	.
.	.	16BLL	4dd
.	.	16c	.
.	.	16B	.
.	.	16cJJ	.
4D	4V7d	16B-LL	4ee
.	.	16c	.
.	.	16B-	.
.	.	16cJJ	.
=212	=212	=212	=212
2.D	2.Ib	16ALL	4ff
.	.	16c	.
.	.	16B	.
.	.	16cJJ	.
.	.	16G#LL	4ee
.	.	16c	.
.	.	16B	.
.	.	16cJJ	.
.	.	16ALL	4ff)
.	.	16c	.
.	.	16B	.
.	.	16cJJ	.
=213	=213	=213	=213
4D	4Ib	16ALL	(4cc
.	.	16c	.
.	.	16B	.
.	.	16cJJ	.
4D	4V7c	16GLL	4ee
.	.	16c	.
.	.	16B-	.
.	.	16cJJ	.
4D	4I	16FLL	4ff
.	.	16c	.
.	.	16A	.
.	.	16cJJ	.
=214	=214	=214	=214
2.D	2.Vb	16ELL	4gg
.	.	16c	.
.	.	16G	.
.	.	16cJJ	.
.	.	16D#LL	4ff#
.	.	16c	.
.	.	16F#	.
.	.	16cJJ	.
.	.	16ELL	4gg)
.	.	16c	.
.	.	16G	.
.	.	16cJJ	.
=215	=215	=215	=215
4D	4Vb	16ELL	(4cc
.	.	16c	.
.	.	16G	.
.	.	16cJJ	.
4D	4ii7	16DLL	4ff
.	.	16c	.
.	.	16F	.
.	.	16cJJ	.
4D	4V	16CLL	4gg
.	.	16c	.
.	.	16E	.
.	.	16cJJ	.
=216	=216	=216	=216
2.D	2.Ib	16FLL	4aa
.	.	16c	.
.	.	16A	.
.	.	16cJJ	.
.	.	16ELL	4gg#
.	.	16c	.
.	.	16G#	.
.	.	16cJJ	.
.	.	16FLL	4aa)
.	.	16c	.
.	.	16A	.
.	.	16cJJ	.
=217	=217	=217	=217
2.D	2.V7/V	16GLL	(4b 4bb
.	.	16f	.
.	.	16d	.
.	.	16fJJ	.
.	.	16GLL	4a 4aa
.	.	16e	.
.	.	16c	.
.	.	16eJJ	.
.	.	16GLL	4b) 4bb
.	.	16f	.
.	.	16d	.
.	.	16fJJ	.
=218	=218	=218	=218
2.D	2.V	16cLL	2.cc 2.ccc
.	.	16g	.
.	.	16e	.
.	.	16cJJ	.
.	.	16GLL	.
.	.	16e	.
.	.	16c	.
.	.	16GJJ	.
.	.	16ELL	.
.	.	16c	.
.	.	16G	.
.	.	16EJJ	.
=219	=219	=219	=219
2.D	2.V	16CLL	2.r
.	.	16G	.
.	.	16E	.
.	.	16CJJ	.
.	.	16GGLL	.
.	.	16E	.
.	.	16C	.
.	.	16GGJJ	.
.	.	16EELL	.
.	.	16C	.
.	.	16GG	.
.	.	16EEJJ	.
=220	=220	=220	=220
2.D	2.V	16CCLL	2.r
.	.	16EE	.
.	.	16GG	.
.	.	16CJJ	.
.	.	16ELL	.
.	.	16C	.
.	.	16G	.
.	.	16EJJ	.
.	.	16cLL	.
.	.	16G	.
.	.	16e	.
.	.	16cJJ	.
=221	=221	=221	=221
2D	2V7	16gLL	2r
.	.	16e	.
.	.	16b-	.
.	.	16gJJ	.
.	.	16eLL	.
.	.	16c	.
.	.	16B-	.
.	.	16GJJ	.
*-	*-	*-	*-
!!!COM: Mozart
!!!OTL: 8 Variationen uber das Lied "Ein Weib ist das herrlichste Ding"
!!!Variation: Variation 4 d
**function	**harm	**kern	**kern
*	*	*clefF4	*clefG2
*	*	*k[b-]	*k[b-]
*F:	*F:	*F:	*F:
*M3/4	*M3/4	*M3/4	*M3/4
4T	4V	16ELL	4c
.	.	16C	.
.	.	16BB-	.
.	.	16GGJJ	.
=222	=222	=222	=222
2.T	2.I	16AALL	(4f
.	.	16FF	.
.	.	16AA	.
.	.	16CJJ	.
.	.	16FLL	4c)
.	.	16A	.
.	.	16c	.
.	.	16AJJ	.
.	.	16FLL	4f'
.	.	16C	.
.	.	16AA	.
.	.	16FFJJ	.
=223	=223	=223	=223
2.T	2.V	16r	(4g
.	.	16CCLL	.
.	.	16EE	.
.	.	16GGJJ	.
.	.	16CLL	4c)
.	.	16E	.
.	.	16G	.
.	.	16EJJ	.
.	.	16CLL	4g'
.	.	16GG	.
.	.	16EE	.
.	.	16CCJJ	.
=224	=224	=224	=224
4T	4I	16FFLL	(4a
.	.	16AA	.
.	.	16C	.
.	.	16FJJ	.
4T	4vi	16DDLL	4f)
.	.	16FF	.
.	.	16AA	.
.	.	16DJJ	.
*	*	*	*^
4T	4iib	16BBB-LL	4b-	4g
.	.	16DD	.	.
.	.	16GG	.	.
.	.	16BB-JJ	.	.
=225	=225	=225	=225	=225
4T	4Cc	16CCLL	(4a	(4f
.	.	16FF	.	.
.	.	16AA	.	.
.	.	16CJJ	.	.
4T	4V	16BBLL	4g)	4e)
.	.	16C	.	.
.	.	16D	.	.
.	.	16CJJ	.	.
4T	4V7d	16AALL	4cc'	4e
.	.	16BB-	.	.
.	.	16C	.	.
.	.	16BB-JJ	.	.
=226	=226	=226	=226	=226
4T	4Ib	16AALL	(4cc	4f
.	.	16C	.	.
.	.	16F	.	.
.	.	16AAJJ	.	.
4T	4V7c	16GGLL	4b-	4e
.	.	16C	.	.
.	.	16E	.	.
.	.	16GGJJ	.	.
4T	4I	16FFLL	4a)	4f
.	.	16C	.	.
.	.	16F	.	.
.	.	16FFJJ	.	.
=227	=227	=227	=227	=227
2T	2IV	16BB-LL	(4dd	2.d
.	.	16F	.	.
.	.	16D	.	.
.	.	16FJJ	.	.
.	.	16BB-LL	4b-	.
.	.	16F#	.	.
.	.	16D	.	.
.	.	16F#JJ	.	.
4T	4iib	16BB-LL	4g)	.
.	.	16G	.	.
.	.	16D	.	.
.	.	16GJJ	.	.
=228	=228	=228	=228	=228
4T	4Cc	16CLL	(4f	4c
.	.	16A	.	.
.	.	16F	.	.
.	.	16AJJ	.	.
2T	2V	16CLL	4g	2e
.	.	16B-	.	.
.	.	16G	.	.
.	.	16B-JJ	.	.
.	.	16CLL	4cc)	.
.	.	16G	.	.
.	.	16E	.	.
.	.	16GJJ	.	.
=229	=229	=229	=229	=229
4T	4viioD7/vi	16C#LL	(4g 4b-	(4e
.	.	16E	.	.
.	.	16G	.	.
.	.	16c#JJ	.	.
4T	4vi	16DLL	4f) 4a	4f)
.	.	16F	.	.
.	.	16A	.	.
.	.	16dJJ	.	.
4T	4V	16CLL	4cc	4e
.	.	16c	.	.
.	.	16BB-	.	.
.	.	16B-JJ	.	.
*	*	*	*v	*v
=230	=230	=230	=230
4T	4Ib	16AALL	(4f 4cc
.	.	16C	.
.	.	16F	.
.	.	16AAJJ	.
4T	4V7c	16GGLL	4e 4b-
.	.	16C	.
.	.	16E	.
.	.	16GGJJ	.
4T	4I	16FFLL	4f) 4a
.	.	16C	.
.	.	16F	.
.	.	16FFJJ	.
=231	=231	=231	=231
4P	4IV	16BB-LL	(4f 4b- 4dd
.	.	16F	.
.	.	16D	.
.	.	16FJJ	.
4P	4viioD7c	16BB-LL	4g 4dd- 4ee
.	.	16G	.
.	.	16E	.
.	.	16GJJ	.
4P	4viioD7/V	16BBLL	4a-) 4dd 4ff
.	.	16A-	.
.	.	16F	.
.	.	16A-JJ	.
=232	=232	=232	=232
4D	4Cc	16CLL	(4f 4a
.	.	16F	.
.	.	16A	.
.	.	16cJJ	.
4D	4iib	16BB-LL	4g) 4b-
.	.	16D	.
.	.	16G	.
.	.	16B-JJ	.
4D	4V	16CLL	4e 4g
.	.	16E	.
.	.	16G	.
.	.	16cJJ	.
=233	=233	=233	=233
2T	2I	4F	4f
.	.	4FF	4r
*-	*-	*-	*-
!!!COM: Mozart
!!!OTL: 8 Variationen uber das Lied "Ein Weib ist das herrlichste Ding"
!!!Variation: Variation 5 a
**function	**harm	**kern	**kern
*	*	*clefF4	*clefG2
*	*	*k[b-]	*k[b-]
*F:	*F:	*F:	*F:
*M3/4	*M3/4	*M3/4	*M3/4
4D	4V	4r	4cc
=234	=234	=234	=234
2.D	2.V	8r	(8bL
.	.	(8c	8ccJ
.	.	8BL	8ddL)
.	.	8cJ	8cc'J
.	.	8dL)	8b-'L
.	.	8c'J	8a'J
=235	=235	=235	=235
2.D	2.V7d	8B-'L	8g'L
.	.	8A'J	8f'J
.	.	8G'L	8e'L
.	.	8F'J	8d'J
.	.	(8EL	(8cL
.	.	8BB-J)	8eJ)
=236	=236	=236	=236
2D	2Ib	4AA	4f
.	.	.	(q32g
.	.	4r	(8fL)
.	.	.	8eJ)
4D	4I	8AAL	(8cL 8f
.	.	8FFJ	8fJ) 8a
=237	=237	=237	=237
4D	4Cc	2C	(4f 4a
2D	2V	.	4e) 4g
.	.	4c	4r
=238	=238	=238	=238
2.D	2.V	(8BL	8r
.	.	8cJ	(8cc
.	.	8dL)	8bL
.	.	8c'J	8ccJ
.	.	8B-'L	8ddL)
.	.	8A'J	8cc'J
=239	=239	=239	=239
2.D	2.V7	8G'L	8b-'L
.	.	8F'J	8a'J
.	.	8E'L	8g'L
.	.	8D'J	8f'J
.	.	(8CL	(8eL
.	.	8BB-J)	8gJ)
=240	=240	=240	=240
4T	4Ib	4AA	4cc
*	*	*	*^
4D	4Cc	4C	(8aL	4c
.	.	.	8fJ)	.
4D	4V7	4CC	(8gL	4B-
.	.	.	8eJ)	.
=241	=241	=241	=241	=241
2T	2I	4FF	4f	4A
*	*	*	*v	*v
.	.	4F	4r
*-	*-	*-	*-
!!!COM: Mozart
!!!OTL: 8 Variationen uber das Lied "Ein Weib ist das herrlichste Ding"
!!!Variation: Variation 5 b
**function	**harm	**kern	**kern
*	*	*clefG2	*clefG2
*	*	*k[b-]	*k[b-]
*F:	*F:	*F:	*F:
*M3/4	*M3/4	*M3/4	*M3/4
4T	4V	4c	4r
=242	=242	=242	=242
2.T	2.Ib	4A 4f	16r
.	.	.	(16cccLL
.	.	.	16ddd
.	.	.	16cccJJ
.	.	4c	16bb-LL
.	.	.	16ccc
.	.	.	16aa
.	.	.	16cccJJ
.	.	4A 4f	16ggLL
.	.	.	16ccc
.	.	.	16ff
.	.	.	16cccJJ
=243	=243	=243	=243
2.T	2.V7	4c 4g	16eeLL
.	.	.	16bb-
.	.	.	16ccc
.	.	.	16bb-JJ
.	.	4c	16aaLL
.	.	.	16bb-
.	.	.	16gg
.	.	.	16bb-JJ
.	.	4c 4g	16ffLL
.	.	.	16bb-
.	.	.	16ee
.	.	.	16bb-JJ
=244	=244	=244	=244
4T	4I	4f 4a	16gg#LL
.	.	.	16aa
.	.	.	16ccc
.	.	.	16aaJJ
4T	4vi	4d 4f	16eeLL
.	.	.	16ff
.	.	.	16aa
.	.	.	16ffJJ
4T	4iib	4B- 4g	16cc#LL
.	.	.	16dd
.	.	.	16gg
.	.	.	16bb-JJ
=245	=245	=245	=245
*	*	*^	*
4T	4Cc	(4f	2c	4aa
4T	4V	4e)	.	4gg)
*	*	*clefF4	*clefF4	*
4T	4V7d	4e	4B-	8.ccL
.	.	.	.	16ccJk
*	*	*	*v	*v
=246	=246	=246	=246
4T	4Ib	4f 4A	(16ccLL
.	.	.	16ff
.	.	.	16ddd
.	.	.	16cccJJ
4T	4V7c	4e 4G	16ccLL
.	.	.	16ee
.	.	.	16ccc
.	.	.	16bb-JJ
4T	4I	4f 4F	16ccLL
.	.	.	16ff
.	.	.	16bb-
.	.	.	16aaJJ
*	*	*clefG2	*
=247	=247	=247	=247
*	*	*^	*
2P	2IV	8r	2.B-	16ddLL
.	.	.	.	16ddd
.	.	(8d	.	16ccc#
.	.	.	.	16dddJJ
.	.	8f#L	.	16cccLL
.	.	.	.	16ddd
.	.	8gJ	.	16bb-
.	.	.	.	16dddJJ
4P	4iib	8aL	.	16aaLL
.	.	.	.	16ddd
.	.	8b-J)	.	16gg
.	.	.	.	16dddJJ
=248	=248	=248	=248	=248
2D	2Cc	4a	4c	16ffLL
.	.	.	.	16aa
.	.	.	.	16ccc
.	.	.	.	16aaJJ
.	.	4r	4r	16ffLL
.	.	.	.	16aa
.	.	.	.	16cc
.	.	.	.	16ffJJ
*	*	*clefF4	*clefF4	*
4D	4V7	(8FL	4C	16aLL
.	.	.	.	16cc
.	.	8EJ)	.	16b-
.	.	.	.	16gJJ
*	*	*v	*v	*
=249	=249	=249	=249
2T	2I	4F	4f)
.	.	4FF	4r
*-	*-	*-	*-
!!!COM: Mozart
!!!OTL: 8 Variationen uber das Lied "Ein Weib ist das herrlichste Ding"
!!!Variation: Variation 5 c
**function	**harm	**kern	**kern
*	*	*clefG2	*clefG2
*	*	*k[b-]	*k[b-]
*F:	*F:	*F:	*F:
*M3/4	*M3/4	*M3/4	*M3/4
4D	4V	4r	8.ggL
.	.	.	16ggJk
=250	=250	=250	=250
2.D	2.V	16cLL	16eeLL
.	.	16e	16gg
.	.	16d#	16ff#
.	.	16eJJ	16ggJJ
.	.	16d#LL	16ff#LL
.	.	16e	16gg
.	.	16d#	16ff#
.	.	16eJJ	16ggJJ
.	.	16fLL	16aaLL
.	.	16e	16gg
.	.	16d#	16ff#
.	.	16eJJ	16ggJJ
=251	=251	=251	=251
2.D	2.V	16cLL	16cccLL
.	.	16e	16gg
.	.	16d#	16ff#
.	.	16eJJ	16ggJJ
.	.	16d#LL	16ff#LL
.	.	16e	16gg
.	.	16d#	16ff#
.	.	16eJJ	16ggJJ
.	.	16fLL	16ff#LL
.	.	16e	16gg
.	.	16d#	16aa
.	.	16eJJ	16ggJJ
=252	=252	=252	=252
2.D	2.V	16cLL	16eeLL
.	.	16e	16gg
.	.	16d#	16ff#
.	.	16eJJ	16ggJJ
.	.	16d#LL	16ff#LL
.	.	16e	16gg
.	.	16d#	16ff#
.	.	16eJJ	16ggJJ
.	.	16fLL	16aaLL
.	.	16e	16gg
.	.	16d#	16ff#
.	.	16eJJ	16ggJJ
=253	=253	=253	=253
2.D	2.V	4c	4ccc
*	*	*clefF4	*
.	.	4C	4r
.	.	4r	8.gL
.	.	.	16gJk
=254	=254	=254	=254
2.D	2.V	16CLL	16eLL
.	.	16E	16g
.	.	16D#	16f#
.	.	16EJJ	16gJJ
.	.	16D#LL	16f#LL
.	.	16E	16g
.	.	16D#	16f#
.	.	16EJJ	16gJJ
.	.	16FLL	16aLL
.	.	16E	16g
.	.	16D#	16f#
.	.	16EJJ	16gJJ
=255	=255	=255	=255
2.D	2.V	16CLL	16ccLL
.	.	16E	16g
.	.	16D#	16f#
.	.	16EJJ	16gJJ
.	.	16D#LL	16f#LL
.	.	16E	16g
.	.	16D#	16f#
.	.	16EJJ	16gJJ
.	.	16FLL	16f#LL
.	.	16E	16g
.	.	16D#	16a
.	.	16EJJ	16gJJ
=256	=256	=256	=256
2.D	2.V	16CLL	16eLL
.	.	16E	16g
.	.	16D#	16f#
.	.	16EJJ	16gJJ
.	.	16D#LL	16f#LL
.	.	16E	16g
.	.	16D#	16f#
.	.	16EJJ	16gJJ
.	.	16FLL	16aLL
.	.	16E	16g
.	.	16D#	16f#
.	.	16EJJ	16gJJ
=257	=257	=257	=257
2.D	2.V	4C	4cc
.	.	4CC	4r
.	.	4r	8.cL
.	.	.	16cJk
=258	=258	=258	=258
*	*	*^	*
4D	4V	4r	[2.C	16cLL
.	.	.	.	16e
.	.	.	.	16g
.	.	.	.	16ccJJ
4D	4V7/V	(4B	.	16dLL
.	.	.	.	16f
.	.	.	.	16g
.	.	.	.	16ddJJ
4D	4V7d	4B-	.	16eLL
.	.	.	.	16g
.	.	.	.	16cc
.	.	.	.	16eeJJ
=259	=259	=259	=259	=259
2.D	2.Ic	4A	2.C]	16fLL
.	.	.	.	16a
.	.	.	.	16cc
.	.	.	.	16ffJJ
.	.	4G#	.	16eLL
.	.	.	.	16g#
.	.	.	.	16cc
.	.	.	.	16eeJJ
.	.	[4A)	.	16fLL
.	.	.	.	16a
.	.	.	.	16cc
.	.	.	.	16ffJJ
=260	=260	=260	=260	=260
4D	4Ic	(4A]	[2.C	16cLL
.	.	.	.	16f
.	.	.	.	16a
.	.	.	.	16ccJJ
4D	4V7	4G 4B-	.	16eLL
.	.	.	.	16g
.	.	.	.	16cc
.	.	.	.	16eeJJ
4D	4Ic	4F 4A	.	16fLL
.	.	.	.	16a
.	.	.	.	16cc
.	.	.	.	16ffJJ
=261	=261	=261	=261	=261
2.D	2.V	4E 4G	2.C]	16gLL
.	.	.	.	16cc
.	.	.	.	16ee
.	.	.	.	16ggJJ
.	.	4D# 4F#	.	16f#LL
.	.	.	.	16cc
.	.	.	.	16dd#
.	.	.	.	16ff#JJ
.	.	4E) 4G	.	16gLL
.	.	.	.	16cc
.	.	.	.	16ee
.	.	.	.	16ggJJ
=262	=262	=262	=262	=262
4D	4V7	(4G 4B-	[2.C	16cLL
.	.	.	.	16e
.	.	.	.	16g
.	.	.	.	16ccJJ
4D	4Ic	4F 4A	.	16fLL
.	.	.	.	16a
.	.	.	.	16cc
.	.	.	.	16ffJJ
4D	4V	4E) 4G	.	16gLL
.	.	.	.	16cc
.	.	.	.	16ee
.	.	.	.	16ggJJ
=263	=263	=263	=263	=263
2.D	2.Ic	(4F 4A	2.C]	16aLL
.	.	.	.	16cc
.	.	.	.	16ff
.	.	.	.	16aaJJ
.	.	4E 4G#	.	16g#LL
.	.	.	.	16cc
.	.	.	.	16ee
.	.	.	.	16gg#JJ
.	.	4F) 4A	.	16aLL
.	.	.	.	16cc
.	.	.	.	16ff
.	.	.	.	16aaJJ
=264	=264	=264	=264	=264
2.D	2.V7/V	(4d 4f	2.G	16bLL
.	.	.	.	16dd
.	.	.	.	16ff
.	.	.	.	16bbJJ
.	.	4c 4e	.	16aLL
.	.	.	.	16cc
.	.	.	.	16ee
.	.	.	.	16aaJJ
.	.	4d) 4f	.	16bLL
.	.	.	.	16dd
.	.	.	.	16ff
.	.	.	.	16bbJJ
*	*	*v	*v	*
=265	=265	=265	=265
2.D	2.V	2C 2E 2G 2c	4cc 4ee 4gg [4ccc
.	.	.	16cccLL]
.	.	.	16eee
.	.	.	16ddd
.	.	.	16cccJJ
.	.	4r	16bbLL
.	.	.	16aa
.	.	.	16gg
.	.	.	16ff#JJ
=266	=266	=266	=266
2.D	2.V	2.r	16ggLL
.	.	.	16aa
.	.	.	16gg
.	.	.	16ffJJ
.	.	.	16eeLL
.	.	.	16dd
.	.	.	16cc
.	.	.	16bJJ
.	.	.	16ccLL
.	.	.	16ee
.	.	.	16dd
.	.	.	16ccJJ
=267	=267	=267	=267
2.D	2.V	2.r	16bLL
.	.	.	16a
.	.	.	16g
.	.	.	16f#JJ
.	.	.	16gLL
.	.	.	16a
.	.	.	16g
.	.	.	16fJJ
.	.	.	16eLL
.	.	.	16d
.	.	.	16c
.	.	.	16BJJ
=268	=268	=268	=268
2.D	2.V7	[2.C [2.E [2.G [2.B-	16cLL
.	.	.	16c#
.	.	.	16d
.	.	.	16e-JJ
.	.	.	16eLL
.	.	.	16f
.	.	.	16f#
.	.	.	16gJJ
.	.	.	16a-LL
.	.	.	16a
.	.	.	16b-
.	.	.	16bJJ
=269	=269	=269	=269
2D	2V7	4C] 4E] 4G] 4B-]	16ccLL
.	.	.	16cc#
.	.	.	16dd
.	.	.	16ee-JJ
.	.	4r	16eeLL
.	.	.	16ff
.	.	.	16ff#
.	.	.	16ggJJ
*-	*-	*-	*-
!!!COM: Mozart
!!!OTL: 8 Variationen uber das Lied "Ein Weib ist das herrlichste Ding"
!!!Variation: Variation 5 d
**function	**harm	**kern	**kern
*	*	*clefG2	*clefG2
*	*	*k[b-]	*k[b-]
*F:	*F:	*F:	*F:
*M3/4	*M3/4	*M3/4	*M3/4
4T	4V7	4c	16aa-LL
.	.	.	16aa
.	.	.	16bb-
.	.	.	16bbJJ
=270	=270	=270	=270
2.T	2.Ib	4A 4f	16ccc'LL
.	.	.	(16ccc
.	.	.	16ddd
.	.	.	16cccJJ
.	.	4c	16bb-LL
.	.	.	16ccc
.	.	.	16aa
.	.	.	16cccJJ
.	.	4A 4f	16ggLL
.	.	.	16ccc
.	.	.	16ff
.	.	.	16cccJJ
=271	=271	=271	=271
2.T	2.V	4c 4g	16eeLL
.	.	.	16bb-
.	.	.	16ccc
.	.	.	16bb-JJ
.	.	4c	16aaLL
.	.	.	16bb-
.	.	.	16gg
.	.	.	16bb-JJ
.	.	4c 4g	16ffLL
.	.	.	16bb-
.	.	.	16ee
.	.	.	16bb-JJ
=272	=272	=272	=272
4T	4I	4f 4a	16gg#LL
.	.	.	16aa
.	.	.	16ccc
.	.	.	16aaJJ
4T	4vi	4d 4f	16eeLL
.	.	.	16ff
.	.	.	16aa
.	.	.	16ffJJ
4T	4iib	4B- 4g	16cc#LL
.	.	.	16dd
.	.	.	16ccc
.	.	.	16bb-JJ
=273	=273	=273	=273
*	*	*^	*
4T	4Cc	(4f	2c	8.aaL
.	.	.	.	32bb-LL
.	.	.	.	32aaJJJ
4T	4V	4e)	.	4gg)
*	*	*clefF4	*clefF4	*
4T	4V7d	4e	4B-	8.ccL
.	.	.	.	16ccJk
*	*	*	*v	*v
=274	=274	=274	=274
4T	4Ib	4f 4A	(16ccLL
.	.	.	16ff
.	.	.	16ddd
.	.	.	16cccJJ
4T	4V7c	4e 4G	16ccLL
.	.	.	16ee
.	.	.	16ccc
.	.	.	16bb-JJ
4T	4I	4f 4F	16ccLL
.	.	.	16ff
.	.	.	16bb-
.	.	.	16aaJJ
*	*	*clefG2	*
=275	=275	=275	=275
*	*	*^	*
2T	2IV	8r	2.B-	16ddLL
.	.	.	.	16ddd
.	.	(8d	.	16ccc#
.	.	.	.	16dddJJ
.	.	8f#L	.	16cccLL
.	.	.	.	16ddd
.	.	8gJ	.	16bb-
.	.	.	.	16dddJJ
4T	4iib	8aL	.	16aaLL
.	.	.	.	16ddd
.	.	8b-J)	.	16gg
.	.	.	.	16dddJJ
=276	=276	=276	=276	=276
2T	2Cc	4a	4c	16ffLL
.	.	.	.	16aa
.	.	.	.	16ccc
.	.	.	.	16aaJJ
.	.	4r	4r	16ffLL
.	.	.	.	16aa
.	.	.	.	16cc
.	.	.	.	16ffJJ
*	*	*clefF4	*clefF4	*
4T	4V	(8FL	4C	16aLL
.	.	.	.	16cc
.	.	8EJ)	.	16g
.	.	.	.	16ccJJ
=277	=277	=277	=277	=277
*	*	*	*	*^
4T	4viioD7/vi	(4G	4C#	8.b-L	(4e
.	.	.	.	32ccLL	.
.	.	.	.	32b-JJJ	.
4T	4vi	4F)	4D	4a)	4f)
*	*	*	*	*v	*v
*	*	*v	*v	*
4T	4V7d	4B- 4e	8.ccL
.	.	.	16ccJk
=278	=278	=278	=278
4T	4Ib	(4A 4f	(16ccLL
.	.	.	16ff
.	.	.	16ddd
.	.	.	16cccJJ
4T	4V7c	4G 4e	16ccLL
.	.	.	16ee
.	.	.	16ccc
.	.	.	16bb-JJ
4T	4I	4F) 4f	16ccLL
.	.	.	16ff
.	.	.	16bb-
.	.	.	16aaJJ
*	*	*clefG2	*
=279	=279	=279	=279
*	*	*^	*
4P	4IV	4d 4f	2B-	16ddLL
.	.	.	.	16ff
.	.	.	.	16bb-
.	.	.	.	16dddJJ
4P	4viioD7c	4d- 4e 4g	.	16eeLL
.	.	.	.	16gg
.	.	.	.	16ddd-
.	.	.	.	16eeeJJ
4P	4viioD7/V	4d 4f 4a-	4B	16ffLL
.	.	.	.	16aa-
.	.	.	.	16ddd
.	.	.	.	16fffJJ
=280	=280	=280	=280	=280
2D	2Cc	4f 4a	4c	16aaLL
.	.	.	.	16fff
.	.	.	.	16ccc
.	.	.	.	16aaJJ
.	.	4r	4r	16ffLL
.	.	.	.	16aa
.	.	.	.	16cc
.	.	.	.	16ffJJ
*	*	*clefF4	*clefF4	*
4D	4V7	(8FL	4C	16aLL
.	.	.	.	16cc
.	.	8EJ)	.	16b-
.	.	.	.	16gJJ
*	*	*v	*v	*
=281	=281	=281	=281
2T	2I	4F	4f)
.	.	4FF	4r
*-	*-	*-	*-
!!!COM: Mozart
!!!OTL: 8 Variationen uber das Lied "Ein Weib ist das herrlichste Ding"
!!!Variation: Variation 6 a
**function	**harm	**kern	**kern
*	*	*clefF4	*clefG2
*	*	*k[b-]	*k[b-]
*F:	*F:	*F:	*F:
*M3/4	*M3/4	*M3/4	*M3/4
4D	4V	4r	4cc
=282	=282	=282	=282
*	*	*^	*
2.D	2.Ic	(8AL	2.C	(16bLL
.	.	.	.	16ccJJ)
.	.	8cJ	.	8r
.	.	8AL	.	(16ddLL
.	.	.	.	16ccJJ)
.	.	8cJ	.	8r
.	.	8AL	.	(16b-LL
.	.	.	.	16aJJ)
.	.	8cJ)	.	8r
=283	=283	=283	=283	=283
2.D	2.V7	(8B-L	2.C	(16gLL
.	.	.	.	16fJJ)
.	.	8cJ	.	8r
.	.	8B-L	.	(16eLL
.	.	.	.	16dJJ)
.	.	8cJ	.	8r
.	.	8B-L	.	(16cLL
.	.	.	.	16eJJ)
.	.	8cJ)	.	8r
=284	=284	=284	=284	=284
2.D	2.Ic	(8AL	2.C	4f
.	.	8cJ	.	.
.	.	.	.	(q32g
.	.	8AL	.	(8fL)
.	.	8cJ	.	8eJ
.	.	8AL	.	8fL
.	.	8cJ)	.	8aJ)
=285	=285	=285	=285	=285
2.D	2.V7	(8B-L	2.C	(4f#
.	.	8cJ	.	.
.	.	8B-L	.	4g)
.	.	8cJ	.	.
.	.	8B-L	.	4ccc
.	.	8cJ)	.	.
=286	=286	=286	=286	=286
2.D	2.Ic	(8AL	2.C	(16bbLL
.	.	.	.	16cccJJ)
.	.	8cJ	.	8r
.	.	8AL	.	(16dddLL
.	.	.	.	16cccJJ)
.	.	8cJ	.	8r
.	.	8AL	.	(16bb-LL
.	.	.	.	16aaJJ)
.	.	8cJ)	.	8r
=287	=287	=287	=287	=287
2.D	2.V7	(8B-L	2.C	(16ggLL
.	.	.	.	16ffJJ)
.	.	8cJ	.	8r
.	.	8B-L	.	(16eeLL
.	.	.	.	16ddJJ)
.	.	8cJ	.	8r
.	.	8B-L	.	(16ccLL
.	.	.	.	32ddL
.	.	.	.	32eeJJ
.	.	8cJ)	.	32ffLL
.	.	.	.	32gg
.	.	.	.	32aa
.	.	.	.	32bb-JJJ
*	*	*v	*v	*
=288	=288	=288	=288
4T	4Ib	4A	4ccc)
*	*	*	*^
4D	4Cc	4c	(8ffL	4a
.	.	.	8aaJ)	.
4D	4V7	4C	(8ggL	4b-
.	.	.	8eeJ)	.
=289	=289	=289	=289	=289
2T	2I	4F	4ff	4a
*	*	*	*v	*v
.	.	4FF	4r
*-	*-	*-	*-
!!!COM: Mozart
!!!OTL: 8 Variationen uber das Lied "Ein Weib ist das herrlichste Ding"
!!!Variation: Variation 6 b
**function	**harm	**kern	**kern
*	*	*clefF4	*clefG2
*	*	*k[b-e-a-d-]	*k[b-e-a-d-]
*f:	*f:	*f:	*f:
*M3/4	*M3/4	*M3/4	*M3/4
4T	4V	4r	8c'L
.	.	.	8c'J
=290	=290	=290	=290
2.T	2.i	(4F	(8c
.	.	.	4f
.	.	4A-	.
.	.	.	4a-
.	.	4c)	.
.	.	.	8f)
=291	=291	=291	=291
2.T	2.V7b	(4E	(8c
.	.	.	4g
.	.	4G	.
.	.	.	4b-
.	.	4c)	.
.	.	.	[8g)
=292	=292	=292	=292
4T	4i	(4F	(8g]
.	.	.	4a-
4T	4VI	4D-	.
.	.	.	4f)
4T	4iioD7b	4BB-)	.
.	.	.	8g 8b-
=293	=293	=293	=293
4T	4Cc	2C	(4f 4a-
2T	2V	.	4e) 4g
.	.	4r	8cc'L
.	.	.	8cc'J
=294	=294	=294	=294
4T	4ib	(4A- 4f	(8dd-
.	.	.	4cc
4T	4V7c	4G 4e	.
.	.	.	4b-
4T	4i	4F) 4f	.
.	.	.	[8a-
=295	=295	=295	=295
2.P	2.iiom7b	2.B- 2.d-	8a-L]
.	.	.	8gJ
.	.	.	8b-L
.	.	.	8dd-J
.	.	.	8b-L
.	.	.	8gJ)
=296	=296	=296	=296
*	*	*^	*
4D	4Cc	(4A-	2.C	8r
.	.	.	.	(4f
2D	2V7	4B-	.	.
.	.	.	.	4g
.	.	4G)	.	.
.	.	.	.	8e)
=297	=297	=297	=297	=297
2T	2i	4A-	4F	4f
*	*	*v	*v	*
.	.	4r	4FF
*-	*-	*-	*-
!!!COM: Mozart
!!!OTL: 8 Variationen uber das Lied "Ein Weib ist das herrlichste Ding"
!!!Variation: Variation 6 c
**function	**harm	**kern	**kern
*	*	*clefG2	*clefG2
*	*	*k[b-e-a-d-]	*k[b-e-a-d-]
*f:	*f:	*f:	*f:
*M3/4	*M3/4	*M3/4	*M3/4
4D	4V	4r	8g'L
.	.	.	8g'J
=298	=298	=298	=298
2D	2V	(8cL	(2g
.	.	8eJ	.
.	.	8cL	.
.	.	8eJ	.
4D	4viioD7/V	8BL	8b-L
.	.	8fJ)	8a-J)
=299	=299	=299	=299
2.D	2.V	4c 4e	8g'L
.	.	.	(8ccJ
.	.	4r	8bL
.	.	.	8b-J
.	.	4r	8aL
.	.	.	8a-J)
=300	=300	=300	=300
2D	2V	(8cL	(2g
.	.	8eJ	.
.	.	8cL	.
.	.	8eJ	.
4D	4viioD7/V	8BL	8b-L
.	.	8fJ)	8a-J)
=301	=301	=301	=301
2.D	2.V	4c 4e	4g
*	*	*clefF4	*
.	.	4C	4r
.	.	4r	8gg'L
.	.	.	8gg'J
*	*	*clefG2	*
=302	=302	=302	=302
2D	2V	(8ccL	(2gg
.	.	8eeJ	.
.	.	8ccL	.
.	.	8eeJ	.
4D	4viioD7/V	8bL	8bb-L
.	.	8ffJ)	8aa-J)
=303	=303	=303	=303
2.D	2.V	4cc 4ee	8gg'L
.	.	.	(8cccJ
.	.	4r	8bbL
.	.	.	8bb-J
.	.	4r	8aaL
.	.	.	8aa-J)
=304	=304	=304	=304
2D	2V	(8ccL	(2gg
.	.	8eeJ	.
.	.	8ccL	.
.	.	8eeJ	.
4D	4viioD7/V	8bL	8bb-L
.	.	8ffJ)	8aa-J)
=305	=305	=305	=305
2.D	2.V	4cc 4ee	4gg
.	.	4c	4r
.	.	4r	8c'L
.	.	.	8c'J
=306	=306	=306	=306
2.D	2.V	4r	(8BL
.	.	.	8cJ
.	.	4r	8d-L
.	.	.	8dJ
*	*	*clefF4	*
.	.	8C'L	8e-L
.	.	8C'J	8eJ
=307	=307	=307	=307
2.D	2.ic	(8BBL	8f)
.	.	8CJ	4c
.	.	8D-L	.
.	.	8DJ	4c
.	.	8E-L	.
.	.	8EJ	[8c
=308	=308	=308	=308
2.D	2.ic	8F)	8cL]
.	.	4C	(8dJ
.	.	.	8e-L
.	.	4C	8eJ
.	.	.	8fL
.	.	[8C	8f#J
=309	=309	=309	=309
2.D	2.V	8CL]	8g)
.	.	(8DJ	4c
.	.	8E-L	.
.	.	8EJ	4c
.	.	8FL	.
.	.	8F#J	[8c
=310	=310	=310	=310
*	*	*^	*
2.D	2.V7	8r	8G)	8cL]
.	.	4c	(8C	(8eJ
.	.	.	8D-L	8fL
.	.	4c	8DJ	8f#J
.	.	.	8E-L	8gL
.	.	[8c	8EJ	8b-J
=311	=311	=311	=311	=311
4.D	4.i	8c]	8FL	8a-L
.	.	4c	8GJ	8eJ
.	.	.	8A-L	8fL
4.D	4.Vb	4c	8EJ	8gJ
.	.	.	8FL	8a-L
.	.	[8c	8GJ	8eJ
=312	=312	=312	=312	=312
8D	8ib	8c]	8A-L	8fL
8D	8Vb	4c	8EJ	8gJ
8D	8i	.	8FL	8a-L
*	*	*clefG2	*	*
8D	8V7d/iv	4f	8E-J	8aJ
8D	8IVb	.	8DL	8b-L
8D	8Lt	8f	8D-J)	8bJ
=313	=313	=313	=313	=313
2.D	2.V	4.e	4CC 4C	4.cc)
.	.	.	4r	.
*	*	*v	*v	*
.	.	.	(8cc'
.	.	4r	8cc'L
.	.	.	8cc'J)
=314	=314	=314	=314
2.D	2.V7	2.r	(8dd-L
.	.	.	8gJ
.	.	.	8b-L
.	.	.	8eJ
.	.	.	8gL
.	.	.	8B-J
=315	=315	=315	=315
2D	2V7	8r	8d-)
.	.	(8G	8r
.	.	8B-L	4r
.	.	8EJ	.
*-	*-	*-	*-
!!!COM: Mozart
!!!OTL: 8 Variationen uber das Lied "Ein Weib ist das herrlichste Ding"
!!!Variation: Variation 6 d
**function	**harm	**kern	**kern
*	*	*clefF4	*clefG2
*	*	*k[b-e-a-d-]	*k[b-e-a-d-]
*f:	*f:	*f:	*f:
*M3/4	*M3/4	*M3/4	*M3/4
4T	4V	8GL	8c'L
.	.	8CJ)	8c'J
=316	=316	=316	=316
2.T	2.i	(4F	(8c
.	.	.	4f
.	.	4A-	.
.	.	.	4a-
.	.	4c)	.
.	.	.	8f)
=317	=317	=317	=317
2.T	2.V7b	(4E	(8c
.	.	.	4g
.	.	4G	.
.	.	.	4b-
.	.	4c)	.
.	.	.	[8g)
=318	=318	=318	=318
4T	4i	(4F	(8g]
.	.	.	4a-
4T	4VI	4D-	.
.	.	.	4f)
4T	4iiom7b	4BB-)	.
.	.	.	8g 8b-
=319	=319	=319	=319
4T	4Cc	2C	(4f 4a-
2T	2V	.	4e) 4g
.	.	4r	8cc'L
.	.	.	8cc'J
=320	=320	=320	=320
4T	4ib	(4A- 4f	(8dd-
.	.	.	4cc
4T	4V7c	4G 4e	.
.	.	.	4b-
4T	4i	4F) 4f	.
.	.	.	[8a-)
=321	=321	=321	=321
2.T	2.iiom7b	2.B- 2.d-	(8a-L]
.	.	.	8gJ
.	.	.	8b-L
.	.	.	8dd-J
.	.	.	8b-L
.	.	.	8gJ)
=322	=322	=322	=322
*	*	*^	*
4T	4Cc	(4A-	2.C	8r
.	.	.	.	(4f
2T	2V	4G	.	.
.	.	.	.	8e
.	.	4E)	.	8gL
.	.	.	.	8ccJ)
*	*	*v	*v	*
=323	=323	=323	=323
2.T	2.VI	4D- 4DD-	(4e 4g 4b-
.	.	8r	8fL) 8a-
*	*	*clefG2	*
.	.	8f 8d-	8ffJ 8a-
.	.	8e-L 8cL	8ffL 8aL
.	.	8d-J 8B-J	8ffJ 8b-J
=324	=324	=324	=324
*	*	*^	*^
2.T	2.viioD7/iv	(4c	2.A	(8ff	2.cc
.	.	.	.	4gg-	.
.	.	4e-	.	.	.
.	.	.	.	4ff	.
.	.	4g-)	.	.	.
.	.	.	.	[8ee-)	.
=325	=325	=325	=325	=325	=325
4P	4iv	2.f	(4B-	(8ee-]	4b-
.	.	.	.	4dd-	.
4P	4ic	.	4c	.	2a-
.	.	.	.	4cc	.
4P	4Gn	.	4d-)	.	.
.	.	.	.	8b)	.
*	*	*	*	*v	*v
=326	=326	=326	=326	=326
2D	2Cc	4f 4a-	4c	8r
.	.	.	.	(q32dd-
.	.	.	.	q32cc
.	.	.	.	q32b
.	.	.	.	(8cc)
.	.	4r	4r	8ffL
.	.	.	.	8a-J
*	*	*clefF4	*clefF4	*
4D	4V7	(8GL	4C	8ccL
.	.	8B-J)	.	8eJ)
=327	=327	=327	=327	=327
2T	2i	4A-	4F	4f
*	*	*v	*v	*
.	.	4FF	4r
*-	*-	*-	*-
!!!COM: Mozart
!!!OTL: 8 Variationen uber das Lied "Ein Weib ist das herrlichste Ding"
!!!Variation: Variation 7 a
**function	**harm	**kern	**kern
*	*	*clefF4	*clefG2
*	*	*k[b-]	*k[b-]
*F:	*F:	*F:	*F:
*M3/4	*M3/4	*M3/4	*M3/4
4T	4I	4r	16ccLL
.	.	.	16ff
.	.	.	16aa
.	.	.	16cccJJ
=328	=328	=328	=328
2.D	2.V	2.r	16bLL
.	.	.	16bb
.	.	.	16ccn
.	.	.	16cccnJJ
.	.	.	16ddLL
.	.	.	16ddd
.	.	.	16cc
.	.	.	16cccJJ
.	.	.	16b-LL
.	.	.	16bb-
.	.	.	16a
.	.	.	16aaJJ
=329	=329	=329	=329
2D	2V	2r	16gLL
.	.	.	16gg
.	.	.	16f
.	.	.	16ffJJ
.	.	.	16eLL
.	.	.	16ee
.	.	.	16d
.	.	.	16ddJJ
4D	4V7d	4B-	16cLL
.	.	.	16cc
.	.	.	16e
.	.	.	16eeJJ
=330	=330	=330	=330
*	*	*^	*
4D	4Ib	2.c	4A	4ff
4D	4Vc	.	4G 4B-	(8ffL)
.	.	.	.	8eeJ
4D	4I	.	4F 4A	8ffL
.	.	.	.	8aaJ)
=331	=331	=331	=331	=331
4D	4Cc	2c	2C	(4ff 4aa
4D	4V	.	.	4ee) 4gg
*	*	*v	*v	*
4D	4Ic	16CLL	4r
.	.	16F	.
.	.	16A	.
.	.	16cJJ	.
=332	=332	=332	=332
2.D	2.V	16BBLL	2.r
.	.	16B	.
.	.	16Cn	.
.	.	16cnJJ	.
.	.	16DLL	.
.	.	16d	.
.	.	16C	.
.	.	16cJJ	.
.	.	16BB-LL	.
.	.	16B-	.
.	.	16AA	.
.	.	16AJJ	.
=333	=333	=333	=333
2.D	2.V7c	16GGLL	(4b- 4cc [4ee
.	.	16G	.
.	.	16FF	.
.	.	16FJJ	.
.	.	16EELL	16eeLL]
.	.	16E	16ff
.	.	16DD	16gg
.	.	16DJJ	16aaJJ
.	.	16CCLL	16bb-LL
.	.	16C	16ccc
.	.	16BBB-	16ddd
.	.	16BB-JJ	16eeeJJ
=334	=334	=334	=334
4T	4Ib	4AAA 4AA	4fff)
4D	4Cc	4r	(8fL
.	.	.	8aJ)
*	*	*	*^
4D	4V7	4C	(8gL	4B-
.	.	.	8eJ)	.
*	*	*	*v	*v
=335	=335	=335	=335
2T	2I	4FF	4f 4A
.	.	8F	8r
.	.	8r;	8r;
*-	*-	*-	*-
!!!COM: Mozart
!!!OTL: 8 Variationen uber das Lied "Ein Weib ist das herrlichste Ding"
!!!Variation: Variation 7 b
**function	**harm	**kern	**kern
*	*	*clefF4	*clefG2
*	*	*k[b-]	*k[b-]
*F:	*F:	*F:	*F:
*M3/4	*M3/4	*M3/4	*M3/4
!Adagio	!	!	!
4T	4V	4r	(8.cL
.	.	.	32BLL
.	.	.	32cJJJ
=336	=336	=336	=336
2.T	2.I	4r	8f')
.	.	.	8r
.	.	(8.FFL	4r
.	.	32AALL	.
.	.	32CJJJ	.
.	.	8F)	16r
.	.	.	(32ALLL
.	.	.	32cJJ
.	.	8r	32fLL
.	.	.	32c
.	.	.	32a
.	.	.	32fJJJ
=337	=337	=337	=337
2.T	2.V	4r	8g)
.	.	.	8r
.	.	(8.CCL	4r
.	.	32EELL	.
.	.	32GGJJJ	.
.	.	8C)	16r
.	.	.	(32cLLL
.	.	.	32eJJ
.	.	8r	32gLL
.	.	.	32e
.	.	.	32b-
.	.	.	32gJJJ)
=338	=338	=338	=338
4T	4I	4F	(16b-LL
.	.	.	16a
.	.	.	16g#
.	.	.	16aJJ
4T	4vi	4D	16gLL
.	.	.	16f
.	.	.	16e
.	.	.	16fJJ
*	*	*^	*
4T	4iib	4G	4BB-	32eLLL
.	.	.	.	32d
.	.	.	.	32e
.	.	.	.	32f#JJ
.	.	.	.	32gLL
.	.	.	.	32a
.	.	.	.	32cc
.	.	.	.	32b-JJJ)
=339	=339	=339	=339	=339
4T	4Cc	(4F	[4C	(8.aL
.	.	.	.	32b-LL
.	.	.	.	32aJJJ
2T	2V	8E)	8C]	8g)
*	*	*v	*v	*
.	.	8r	8r
.	.	4r	8.ccL
.	.	.	16ccJk
=340	=340	=340	=340
.	.	.	(q32b
.	.	.	q32cc
.	.	.	q32dd
4T	4Ib	16r	8cc)
.	.	(16ALL	.
.	.	16c	16r
.	.	16fJJ)	(16cc
4T	4V7c	16r	8b-)
.	.	(16GLL	.
.	.	16c	16r
.	.	16eJJ)	(16b-
4T	4I	16r	8a)
.	.	(16FLL	.
.	.	16c	16r
.	.	16fJJ)	(16a
=341	=341	=341	=341
2.P	2.iib	2.B- 2.d	16gLL)
.	.	.	(16dd
.	.	.	16cc#
.	.	.	16ccJJ
.	.	.	16bLL
.	.	.	16b-
.	.	.	16a
.	.	.	16a-JJ
.	.	.	32f#LLL
.	.	.	32g
.	.	.	32b-
.	.	.	32aJJ
.	.	.	32ccLL
.	.	.	32b-
.	.	.	32a
.	.	.	32gJJJ)
=342	=342	=342	=342
*	*	*^	*
2D	2Cc	2A	2.C	(8.fL
.	.	.	.	16gJk
.	.	.	.	8.aL
.	.	.	.	16b-Jk
4D	4V7	4B-	.	16cc'LL)
.	.	.	.	(16c
.	.	.	.	16d
.	.	.	.	16eJJ)
=343	=343	=343	=343	=343
2T	2I	(4B-	[4F	(4g
.	.	8A)	8F]	8f)
*	*	*v	*v	*
.	.	8r	8r
*-	*-	*-	*-
!!!COM: Mozart
!!!OTL: 8 Variationen uber das Lied "Ein Weib ist das herrlichste Ding"
!!!Variation: Variation 7 c
**function	**harm	**kern	**kern
*	*	*clefF4	*clefG2
*	*	*k[b-]	*k[b-]
*F:	*F:	*F:	*F:
*M3/4	*M3/4	*M3/4	*M3/4
4D	4V	4r	8.gL
.	.	.	16gJk
=344	=344	=344	=344
2D	2V	16CLL	(4.g
.	.	16E	.
.	.	16G	.
.	.	16EJJ	.
.	.	16CLL	.
.	.	16E	.
.	.	16G	32aLLL
.	.	.	32g
.	.	16EJJ	32f#
.	.	.	32gJJJ
4D	4viiom7	16BBLL	8bL
.	.	16D	.
.	.	16F	16.aL)
.	.	16DJJ	.
.	.	.	32gJJk
=345	=345	=345	=345
2.D	2.V	16CLL	4g
.	.	16E	.
.	.	16G	.
.	.	16EJJ	.
.	.	16CLL	32r
.	.	.	(32cLLL
.	.	16E	32d
.	.	.	32eJJ
.	.	16G	32fLL
.	.	.	32g
.	.	16EJJ	32a
.	.	.	32bJJJ
.	.	16CLL	32ccLLL
.	.	.	32dd
.	.	16E	32ee
.	.	.	32bJJ
.	.	16G	32ccLL
.	.	.	32g
.	.	16EJJ	32a
.	.	.	32eJJJ)
=346	=346	=346	=346
2D	2Ic/V	16GGLL	[4g
.	.	16C	.
.	.	16E	.
.	.	16CJJ	.
.	.	16GGLL	16gLL]
.	.	16C	(16g
.	.	16E	16a
.	.	16CJJ	16gJJ)
4D	4V7/V	16GGLL	(16gLL
.	.	16BB	16f
.	.	16D	16e
.	.	16BBJJ	16fJJ)
=347	=347	=347	=347
*	*	*^	*^
2.D	2.V	(4F	[4C	(8dL	(4B
.	.	.	.	8d#J	.
.	.	8E)	8C]	8e')	8c)
*	*	*	*	*v	*v
*	*	*v	*v	*
.	.	8r	8r
.	.	4r	8.cL
.	.	.	16cJk
=348	=348	=348	=348
4D	4V7	(4B- [4C	(16cLL
.	.	.	16c#J
.	.	.	24d'L
.	.	.	24e-'
.	.	.	24e'JJ
2D	2Cc	8A) 8C]	8f)
.	.	8r	8r
.	.	4r	8.cL
.	.	.	16cJk
=349	=349	=349	=349
4D	4Cc	(4An [4C	(24cLL
.	.	.	24c#
.	.	.	24dJ
.	.	.	32e-'LL
.	.	.	32e'
.	.	.	32f'
.	.	.	32f#'JJJ
2D	2V	8E) 8C]	8g)
.	.	8r	8r
.	.	4r	8.cL
.	.	.	16cJk
=350	=350	=350	=350
*	*	*^	*
4D	4V	4En	2.C	(32cLLL
.	.	.	.	32c#
.	.	.	.	32d
.	.	.	.	32e-JJ
.	.	.	.	32eLL
.	.	.	.	32f
.	.	.	.	32f#
.	.	.	.	64gL
.	.	.	.	64g#JJJJ
4D	4IVc/V	4F	.	32aLLL)
.	.	.	.	(32f
.	.	.	.	32e
.	.	.	.	32fnJJ
.	.	.	.	32f#LL
.	.	.	.	32g
.	.	.	.	32g#
.	.	.	.	32aJJJ
4D	4viio/V	4D	.	32bLLL
.	.	.	.	32g
.	.	.	.	32f#
.	.	.	.	32gJJ
.	.	.	.	32a-LL
.	.	.	.	32a
.	.	.	.	32b-
.	.	.	.	32bJJJ)
*	*	*v	*v	*
=351	=351	=351	=351
*M13/8	*M13/8	*M13/8	*M13/8
!Free time, no real time signature changes	!	!	!
1.D	1.V	4C 4E 4G 4c	8.cc;L
.	.	.	(16bJk
.	.	4.r	32ccLLL
.	.	.	32ee
.	.	.	32dd
.	.	.	32ffJJ
.	.	.	32eeLL
.	.	.	32gg
.	.	.	32ff
.	.	.	32aaJJ
.	.	.	32ggLL
.	.	.	32bb-
.	.	.	32aa
.	.	.	32cccJJJ
*	*	*clefG2	*
.	.	1c 1e 1g 1b-	(8.bb-L)
.	.	.	32cccLL
.	.	.	32dddJJJ)
.	.	.	(8cccL
.	.	.	16bb-Jk)
.	.	.	16r
.	.	.	(8aaL
.	.	.	16ggJk)
.	.	.	16r
.	.	.	(8ffL
8D	8V	.	16eeJk)
.	.	.	16r
=352	=352	=352	=352
*M8/4	*M8/4	*M8/4	*M8/4
1D	1V7	8r	(4dd-
*	*	*^	*
.	.	4g 4b-	(8fL	.
.	.	.	8eJ)	16ccLL)
.	.	.	.	(16bb-'
.	.	8r	8r	16bb-'
.	.	.	.	16bb-'JJ)
.	.	8r	8r	(4dd-
.	.	4g 4b-	(8f	.
.	.	.	8e)	16ccLL)
.	.	.	.	(16bb-'
*	*	*v	*v	*
.	.	8r	16bb-'
.	.	.	16bb-'JJ)
*	*	*clefF4	*
.	.	.	(q32aa
.	.	.	q32bb-
.	.	.	q32cc
1D	1V7	32r	8bb-)
.	.	32CCLLL	.
.	.	32EE	.
.	.	32GGJJ	.
.	.	32BB-LL	8r
.	.	32C	.
.	.	32E	.
.	.	32GJJJ	.
.	.	32B-LLL	4r
.	.	32c	.
.	.	32e	.
.	.	32gJJ	.
.	.	32b-LL	.
.	.	32cc	.
.	.	32ee	.
.	.	32ggJJJ	.
.	.	8bb-	8r
.	.	8r	8r;
*-	*-	*-	*-
!!!COM: Mozart
!!!OTL: 8 Variationen uber das Lied "Ein Weib ist das herrlichste Ding"
!!!Variation: Variation 7 d
**function	**harm	**kern	**kern
*	*	*clefF4	*clefG2
*	*	*k[b-]	*k[b-]
*F:	*F:	*F:	*F:
*M3/4	*M3/4	*M3/4	*M3/4
4T	4V	4r	(8.cL)
.	.	.	32BLL
.	.	.	32cJJJ
=353	=353	=353	=353
2.T	2.I	4r	8f)
.	.	.	8r
.	.	(8.FFL	4r
.	.	64GGLLL	.
.	.	64AA	.
.	.	128BB-L	.
.	.	128C	.
.	.	128D	.
.	.	128EJJJJJ	.
.	.	8F)	48r
.	.	.	(48ALLL
.	.	.	48cJJ
.	.	.	48fLL
.	.	.	48c
.	.	.	48aJJ
.	.	8r	48fLL
.	.	.	48cc
.	.	.	48aJJ
.	.	.	48ffLL
.	.	.	48cc
.	.	.	48aJJJ
=354	=354	=354	=354
2.T	2.V	4r	8g)
.	.	.	8r
.	.	(8.CCL	4r
.	.	64DDLLL	.
.	.	64EE	.
.	.	128FFL	.
.	.	128GG	.
.	.	128AA	.
.	.	128BBJJJJJ	.
.	.	8C)	48r
.	.	.	(48cLLL
.	.	.	48eJJ
.	.	.	48gLL
.	.	.	48e
.	.	.	48b-JJ
.	.	8r	48gLL
.	.	.	48ee
.	.	.	48b-JJ
.	.	.	48ggLL
.	.	.	48ee
.	.	.	48b-JJJ)
=355	=355	=355	=355
4T	4I	8.FL	(16b-LL
.	.	.	16a
.	.	.	16cc
.	.	16C#Jk	16eJJ
4T	4vi	8.DL	16gLL
.	.	.	16f
.	.	.	16a
.	.	16AAJk	16c#JJ)
4T	4iib	4BB-	(32eLLL
.	.	.	32d
.	.	.	32f#
.	.	.	32gJJ
*	*	*^	*
.	.	8G	.	32aLL
.	.	.	.	32b-
.	.	.	.	32cc#
.	.	.	.	32ddJJJ)
=356	=356	=356	=356	=356
4T	4Cc	(4F	[4C	(8.aL
.	.	.	.	32b-LL
.	.	.	.	32aJJJ
2T	2V7	8E)	8C]	16gLL)
.	.	.	.	(16f#'
*	*	*v	*v	*
.	.	8r	16g'
.	.	.	16a'JJ)
.	.	4r	(16b-LL
.	.	.	16b
.	.	.	16dd
.	.	.	16ccJJ)
=357	=357	=357	=357
4T	4Ib	16r	8cc
.	.	(16ALL	.
.	.	16c	16r
.	.	16fJJ)	(32ddLLL
.	.	.	32ccJJJ
4T	4V7c	16r	8b-)
.	.	(16GLL	.
.	.	16c	16r
.	.	16eJJ)	(32ccLLL
.	.	.	32b-JJJ
4T	4I	16r	8a)
.	.	(16FLL	.
.	.	16c	16r
.	.	16fJJ)	(32b-LLL
.	.	.	32aJJJ
=358	=358	=358	=358
2.T	2.iib	2.B- 2.d	32gLLL)
.	.	.	(32dd
.	.	.	32cc#
.	.	.	32ddJJ
.	.	.	32ccLL
.	.	.	32dd
.	.	.	32b
.	.	.	32ddJJJ
.	.	.	32b-LLL
.	.	.	32dd
.	.	.	32a
.	.	.	32ddJJ
.	.	.	32a-LL
.	.	.	32dd
.	.	.	32g
.	.	.	32ddJJJ
.	.	.	32f#LLL
.	.	.	32g
.	.	.	32b-
.	.	.	32aJJ
.	.	.	32ccLL
.	.	.	32b-
.	.	.	32a
.	.	.	32gJJJ
=359	=359	=359	=359
*	*	*^	*
2T	2Cc	2A	[2.C	8.fnL
.	.	.	.	32aLL
.	.	.	.	32fJJJ
.	.	.	.	16cLL)
.	.	.	.	(16cc'
.	.	.	.	16cc'
.	.	.	.	16cc'JJ)
*	*	*	*	*^
4T	4V	[4G	.	(16bLL	4en
.	.	.	.	16cc	.
.	.	.	.	16dd	.
.	.	.	.	16b-JJ)	.
=360	=360	=360	=360	=360	=360
8T	8V	(4G]	8CL]	(8ccL	(4e
8T	8V7b/vi	.	(8C#J	32aLL	.
.	.	.	.	32b-	.
.	.	.	.	32cc	.
.	.	.	.	32b-JJJ	.
4T	4vi	8F)	8D)	8a)	8f)
*	*	*	*	*v	*v
.	.	8r	8r	16r
.	.	.	.	32r
.	.	.	.	32e'
4T	4V	4r	4r	(32gLLL
.	.	.	.	32f
.	.	.	.	32a
.	.	.	.	32gJJ
.	.	.	.	32b-LL
.	.	.	.	32a
.	.	.	.	32cc
.	.	.	.	32b-JJJ)
*	*	*v	*v	*
=361	=361	=361	=361
4T	4Ib	(16ALL	(32ddLLL
.	.	.	32cc
.	.	16c	32b
.	.	.	32ccJJ
.	.	16f	32bLL
.	.	.	32cc
.	.	16AJJ	32dd
.	.	.	32ccJJJ)
4T	4V7c	16GLL	(32ccLLL
.	.	.	32b-
.	.	16c	32a
.	.	.	32b-JJ
.	.	16e	32aLL
.	.	.	32b-
.	.	16GJJ	32cc
.	.	.	32b-JJJ)
4T	4I	16FLL	(32b-LLL
.	.	.	32a
.	.	16c	32g#
.	.	.	32aJJ
.	.	16f	32g#LL
.	.	.	32a
.	.	16FJJ)	32b-
.	.	.	32aJJJ)
=362	=362	=362	=362
2P	2IV	32r	8dd
.	.	(32BB-LLL	.
.	.	32D	.
.	.	32FJJ	.
.	.	8B-J)	32r
.	.	.	(32dLLL
.	.	.	32f
.	.	.	32b-JJJ
.	.	4r	32ddLLL
.	.	.	32ff
.	.	.	32bb-
.	.	.	32ffJJ
.	.	.	32dddLL
.	.	.	32aa
.	.	.	32bb-
.	.	.	32ff#JJJ
4P	4iib	4r	32ggLLL
.	.	.	32cc#
.	.	.	32dd
.	.	.	32aJJ
.	.	.	32b-LL
.	.	.	32f#
.	.	.	32g
.	.	.	32ddJJJ
=363	=363	=363	=363
2D	2Cc	8CL	24cc'LL)
.	.	.	24aa'
.	.	.	24gg'J
.	.	8FJ 8A	24ff'L
.	.	.	24ee'
.	.	.	24dd'JJ
.	.	8CL	24cc'LL
.	.	.	24b'
.	.	.	24b-'J
.	.	8FJ 8A	(32aLL
.	.	.	32a-
.	.	.	32g
.	.	.	32f#JJJ
4D	4V7	8C 8G 8B-	16fLL
.	.	.	16e
.	.	8r	16b-JJ)
.	.	.	32r
.	.	.	(q32f
.	.	.	q32e
.	.	.	q32d
.	.	.	32e)
=364	=364	=364	=364
*	*	*^	*
2T	2I	(4B-	[4F	(8.gL
.	.	.	.	32aLL
.	.	.	.	32gJJJ
.	.	8A)	8F]	8f)
*	*	*v	*v	*
.	.	8r	8r
8T	8I	8r	8r
*-	*-	*-	*-
!!!COM: Mozart
!!!OTL: 8 Variationen uber das Lied "Ein Weib ist das herrlichste Ding"
!!!Variation: Variation 8 b
**function	**harm	**kern	**kern
*	*	*clefF4	*clefG2
*	*	*k[b-]	*k[b-]
*F:	*F:	*F:	*F:
*M2/4	*M2/4	*M2/4	*M2/4
8T	8V	8r	8c
=365	=365	=365	=365
2T	2I	8r	(8f
.	.	(8A	4c)
.	.	8GL	.
.	.	.	(q32g
.	.	.	q32f
.	.	.	q32e
.	.	8FJ)	(8f)
=366	=366	=366	=366
2T	2V	8r	8g
.	.	(8E	4c)
.	.	8DL	.
.	.	.	(q32a
.	.	.	q32g
.	.	.	q32f
.	.	8CJ	(8g)
=367	=367	=367	=367
8T	8I	8FL	8aL
8T	8V7b/vi	8C#J	8eJ
8T	8vi	8DL)	8fL)
8T	8iib	8BB-'J	8g'J 8b-'
=368	=368	=368	=368
4T	4Ic	4.C	(4f 4a
4T	4V	.	8eL) 8g
.	.	8r	8cc'J
=369	=369	=369	=369
8T	8I	8FF' 8F'	8a' 8cc'
4T	4V7c	(4GG 4G	(4g 4b-
8T	8Ib	8AA) 8A	8f) 8a
=370	=370	=370	=370
8P	8IV	8BB-' 8B-'	8b-' 8dd'
4P	4viioD7c	(4C 4c	(4g 4b- 4ee
8P	8viioD7/V	8D) 8d	8f) 8a 8ff
=371	=371	=371	=371
*	*	*^	*
4D	4Cc	8AL	8CL	8f'L
.	.	8AJ	8CJ	8f'J
*	*	*	*	*^
4D	4V7	8B-L	8CL	(16gLL	4e
.	.	.	.	16f	.
.	.	8B-J	8CJ	16g	.
.	.	.	.	16aJJ)	.
=372	=372	=372	=372	=372	=372
4.T	4.I	8A	8FL	4f	4f
*	*	*v	*v	*	*
*	*	*	*v	*v
.	.	8CJ	.
.	.	8FF	8r
*-	*-	*-	*-
!!!COM: Mozart
!!!OTL: 8 Variationen uber das Lied "Ein Weib ist das herrlichste Ding"
!!!Variation: Variation 8 b2
**function	**harm	**kern	**kern
*	*	*clefG2	*clefG2
*	*	*k[b-]	*k[b-]
*F:	*F:	*F:	*F:
*M2/4	*M2/4	*M2/4	*M2/4
8T	8V	8r	8cc'
=373	=373	=373	=373
2T	2I	8r	(8ff
.	.	(8a	4cc)
.	.	8gL	.
.	.	.	(q32gg
.	.	.	q32ff
.	.	.	q32ee
.	.	8fJ)	(8ff)
=374	=374	=374	=374
2T	2V	8r	8gg
.	.	(8e	4cc)
.	.	8dL	.
.	.	.	(q32aa
.	.	.	q32gg
.	.	.	q32ff
.	.	8cJ	(8gg)
=375	=375	=375	=375
8T	8I	8fL	8aaL
8T	8V7b/vi	8c#J	8eeJ
8T	8vi	8dL)	8ffL)
8T	8iib	8B-'J	8gg'J 8bb-'
=376	=376	=376	=376
4T	4Cc	4.c	(4ff 4aa
4T	4V	.	8eeL) 8gg
.	.	8r	8ccc'J
=377	=377	=377	=377
8T	8I	8F' 8f'	8cc' 8aa' 8ccc'
4T	4viiob	(4G 4g	(4cc 4ee 4bb-
8T	8Ib	8A) 8a	8cc) 8ff 8aa
=378	=378	=378	=378
8P	8IV	8B-' 8b-'	8dd' 8ff' 8bb-' 8ddd'
4P	4V7	(4B- 4b-	(4ee 4gg 4ddd- 4eee
8P	8vi	8B) 8b	8ff) 8aa- 8ddd 8fff
=379	=379	=379	=379
*	*	*	*^
4D	4Cc	8cL 8cc	8aaL	8ffL
.	.	8cJ 8cc	8aaJ	8ffJ
4D	4V7	8cL 8b-	(16ggLL	4ee
.	.	.	16ff	.
.	.	8cJ 8b-	16gg	.
.	.	.	16aaJJ)	.
=380	=380	=380	=380	=380
4.T	4.I	8fL 8a	4ff	4ff
*	*	*	*v	*v
.	.	8cJ	.
.	.	8F	8r
*-	*-	*-	*-
!!!COM: Mozart
!!!OTL: 8 Variationen uber das Lied "Ein Weib ist das herrlichste Ding"
!!!Variation: Variation 8 c
**function	**harm	**kern	**kern
*	*	*clefF4	*clefF4
*	*	*k[b-]	*k[b-]
*F:	*F:	*F:	*F:
*M3/4	*M3/4	*M3/4	*M3/4
8T	8I	8r	8g
=381	=381	=381	=381
*	*	*^	*
2D	2V	8r	2C	(16eLL
.	.	.	.	16f
.	.	8E 8G	.	16e
.	.	.	.	16dJJ
.	.	8EL 8G	.	16eLL
.	.	.	.	16g
.	.	8EJ 8G	.	16f
.	.	.	.	16aJJ
=382	=382	=382	=382	=382
2D	2V	8r	2C	4g)
.	.	8E 8G	.	.
.	.	8EL 8G	.	8r
.	.	8EJ 8G	.	8g
=383	=383	=383	=383	=383
2D	2V	8r	2C	(16ccLL
.	.	.	.	16ee
.	.	8E 8G	.	16dd
.	.	.	.	16ccJJ
.	.	8EL 8G	.	16bLL
.	.	.	.	16dd
.	.	8EJ 8G	.	16cc
.	.	.	.	16aJJ
=384	=384	=384	=384	=384
2D	2V	8r	2C	4g)
.	.	8E 8G	.	.
.	.	8EL 8G	.	8r
.	.	8EJ 8G	.	8gg
=385	=385	=385	=385	=385
2D	2V	8r	2C	(16eeLL
.	.	.	.	16ff
.	.	8E 8G	.	16ee
.	.	.	.	16ddJJ
.	.	8EL 8G	.	16eeLL
.	.	.	.	16gg
.	.	8EJ 8G	.	16ff
.	.	.	.	16aaJJ
=386	=386	=386	=386	=386
2D	2V	8r	2C	16ggLL
.	.	.	.	16eee
.	.	8E 8G	.	16ddd
.	.	.	.	16cccJJ
.	.	8EL 8G	.	16bbLL
.	.	.	.	16ddd
.	.	8EJ 8G	.	16ccc
.	.	.	.	16aaJJ
*	*	*v	*v	*
=387	=387	=387	=387
2D	2V	8CL 8E 8G	16ggLL
.	.	.	16ccc
.	.	8CJ 8D 8G	16aa
.	.	.	16ffJJ
.	.	8CL 8E 8G	16eeLL
.	.	.	16gg
.	.	8CJ 8D 8G	16ff
.	.	.	16ddJJ
=388	=388	=388	=388
2D	2V	8CL 8E 8G	4cc')
.	.	8cJ	.
.	.	8CL	8r
.	.	8CCJ 8C	8c
=389	=389	=389	=389
2D	2V	4CC 4C	16BLL
.	.	.	16c
.	.	.	16d
.	.	.	16cJJ
.	.	8DDL 8D	16eLL
.	.	.	16d
.	.	8EEJ 8E	16f
.	.	.	16eJJ
=390	=390	=390	=390
2D	2I	8FFL 8F	16gLL
.	.	.	16f
.	.	(16AL	16a
.	.	16GJJ	16gJJ
.	.	16FLL	16fLL
.	.	16E	16e
.	.	16F	16f
.	.	16DJJ	16dJJ
=391	=391	=391	=391
2D	2V	8CL)	16BLL
.	.	.	16c
.	.	8DDJ 8D	16e
.	.	.	16dJJ
.	.	8EEL 8E	16fLL
.	.	.	16e
.	.	8FFJ 8F	16g
.	.	.	16fJJ
=392	=392	=392	=392
2D	2ii	8GGL 8G	16aLL
.	.	.	16g
.	.	(16B-L	16b-
.	.	16AJJ	16aJJ
.	.	16GLL	16gLL
.	.	16F	16f
.	.	16E	16e
.	.	16DJJ	16dJJ
=393	=393	=393	=393
2D	2V	8CL)	16BLL
.	.	.	16c
.	.	8EEJ 8E	16f
.	.	.	16eJJ
.	.	8FFL 8F	16gLL
.	.	.	16f
.	.	8GGJ 8G	16a
.	.	.	16gJJ
=394	=394	=394	=394
2D	2iii	8AAL 8A	16b-LL
.	.	.	16a
.	.	(16cL	16cc
.	.	16B-JJ	16b-JJ
.	.	16ALL	16aLL
.	.	16G	16g
.	.	16F	16f
.	.	16EJJ	16eJJ
=395	=395	=395	=395
2D	2V7c/V	16DLL	16dLL
.	.	16C	16c
.	.	16BB	16B
.	.	16AAJJ	16AJJ
.	.	16GGLL	16GLL
.	.	16FF	16F
.	.	16EE	16E
.	.	16DDJJ)	16DJJ
=396	=396	=396	=396
2D	2V	4CC	8CL
.	.	.	16DL
.	.	.	16EJJ
.	.	4r	16FLL
.	.	.	16G
.	.	.	16A
.	.	.	16BJJ
=397	=397	=397	=397
2D	2V	2r	16cLL
.	.	.	16G
.	.	.	16A
.	.	.	16BJJ
.	.	.	16cLL
.	.	.	16d
.	.	.	16e
.	.	.	16fJJ
=398	=398	=398	=398
2D	2V	2r	16gLL
.	.	.	16c
.	.	.	16d
.	.	.	16eJJ
.	.	.	16fLL
.	.	.	16g
.	.	.	16a
.	.	.	16bJJ
=399	=399	=399	=399
2D	2V	2r	16ccLL
.	.	.	16g
.	.	.	16a
.	.	.	16bJJ
.	.	.	16ccLL
.	.	.	16dd
.	.	.	16ee
.	.	.	16ffJJ
=400	=400	=400	=400
2D	2V	2r	16ggLL
.	.	.	16cc
.	.	.	16dd
.	.	.	16eeJJ
.	.	.	16ffLL
.	.	.	16gg
.	.	.	16aa
.	.	.	16bbJJ
=401	=401	=401	=401
2D	2V	2r	16cccLL
.	.	.	16ddd
.	.	.	16bb
.	.	.	16dddJJ
.	.	.	16cccLL
.	.	.	16ddd
.	.	.	16bb
.	.	.	16dddJJ
=402	=402	=402	=402
2D	2V	(8CCL	8ccc
.	.	16DDL	8r
.	.	16EEJJ	.
.	.	16FFLL	[4ee [4ccc
.	.	16GG	.
.	.	16AA	.
.	.	16BBJJ	.
=403	=403	=403	=403
2D	2V	16CLL	4ee] 4ccc]
.	.	16D	.
.	.	16E	.
.	.	16FJJ	.
.	.	16GLL	[4ee [4ccc
.	.	16A	.
.	.	16B-	.
.	.	16BJJ	.
*	*	*clefG2	*
=404	=404	=404	=404
2D	2V	16cLL	4ee] 4ccc]
.	.	16d	.
.	.	16e	.
.	.	16fJJ	.
.	.	16f#LL	[4ee [4ccc
.	.	16g	.
.	.	16g#	.
.	.	16aJJ	.
=405	=405	=405	=405
2D	2V7	16b-LL	8eeL] 8ccc]
.	.	16cc	.
.	.	16a	8eeJ 8ccc
.	.	16ccJJ	.
.	.	16b-LL	8eeL 8ccc
.	.	16cc	.
.	.	16a	8eeJ 8ccc
.	.	16ccJJ	.
=406	=406	=406	=406
2D	2V7	4b-)	(4ee 4ccc
.	.	4r	16cccLL)
.	.	.	16ddd
.	.	.	16ccc
.	.	.	16bbJJ
=407	=407	=407	=407
2D	2V7	2r	16cccLL
.	.	.	16ccc#
.	.	.	16ddd
.	.	.	16ccc#JJ
.	.	.	16eeeLL
.	.	.	16ddd
.	.	.	16ccc
.	.	.	16bb-JJ
=408	=408	=408	=408
2D	2V7	[2c [2e [2b-	16aaLL
.	.	.	16gg
.	.	.	16bb-
.	.	.	16aaJJ
.	.	.	16cccLL
.	.	.	16bb-
.	.	.	16aa
.	.	.	16ggJJ
=409	=409	=409	=409
2D	2V7	8c] 8e] 8b-]	16ffLL
.	.	.	16ee
.	.	8r	16gg
.	.	.	16ff#JJ
.	.	4r	16aaLL
.	.	.	16gg
.	.	.	16ff
.	.	.	16eeJJ
=410	=410	=410	=410
2D	2V7	2r	16ddLL
.	.	.	16cc
.	.	.	16dd
.	.	.	16cc#JJ
.	.	.	16eeLL
.	.	.	16dd
.	.	.	16cc
.	.	.	16b-JJ
=411	=411	=411	=411
2D	2V7	2r	16aLL
.	.	.	16g
.	.	.	16b-
.	.	.	16aJJ
.	.	.	16ccLL
.	.	.	16b-
.	.	.	16a
.	.	.	16gJJ
*	*	*clefF4	*
=412	=412	=412	=412
2D	2V7	[2C [2G [2B-	4.f
.	.	.	16gLL
.	.	.	16fJJ
=413	=413	=413	=413
2D	2V7	8C] 8G] 8B-]	4e)
.	.	8r	.
.	.	4r	8r
*-	*-	*-	*-
!!!COM: Mozart
!!!OTL: 8 Variationen uber das Lied "Ein Weib ist das herrlichste Ding"
!!!Variation: Variation 8 d
**function	**harm	**kern	**kern
*	*	*clefF4	*clefG2
*	*	*k[b-]	*k[b-]
*F:	*F:	*F:	*F:
*M3/4	*M3/4	*M3/4	*M3/4
8T	8V	8r	8c
=414	=414	=414	=414
2T	2I	8r	(8f
.	.	(8A	4c)
.	.	8GL	.
.	.	.	(q32g
.	.	.	q32f
.	.	.	q32g
.	.	8FJ)	(8f)
=415	=415	=415	=415
2T	2V	8r	8g
.	.	(8E	4c)
.	.	8DL	.
.	.	.	(q32a
.	.	.	q32g
.	.	.	q32f
.	.	8CJ	(8g)
=416	=416	=416	=416
8T	8I	8FL	8aL
8T	8V7b/vi	8C#J	8eJ
8T	8vi	8DL)	8fL)
8T	8iib	8BB-'J	8g'J 8b-'
=417	=417	=417	=417
4T	4Cc	4.C	(4f 4a
4T	4V	.	8eL) 8g
.	.	8r	8cc'J
=418	=418	=418	=418
8T	8I	8FF' 8F'	8a' 8cc'
4T	4viiob	(4GG 4G	(4g 4b-
8T	8Ib	8AA) 8A	8f) 8a
=419	=419	=419	=419
8T	8IV	8BB-' 8B-'	8b-' 8dd'
4T	4V7	(4C 4c	(4g 4b- 4ee
8T	8vi	8D) 8d	8f) 8a 8ff
=420	=420	=420	=420
*	*	*^	*
4T	4Cc	8A'L	8CL	8f'L 8c'L
.	.	8A'J	8CJ	8f'J 8c'J
*	*	*	*	*^
4T	4V7	(8B-L	4C	(8gL	4e
.	.	8GJ)	.	8ccJ)	.
=421	=421	=421	=421	=421	=421
2T	2I	(4G	4C	(4b-	(4e
.	.	8AL)	8F	8aL)	8f)
*	*	*	*	*v	*v
*	*	*v	*v	*
*	*	*clefG2	*
.	.	8F'J 8f'	8cc'J 8aa' 8ccc'
=422	=422	=422	=422
8T	8I	8F' 8f'	8cc' 8aa' 8ccc'
4T	4V7c	(4G 4g	(4cc 4ee 4bb-
8T	8Ib	8A) 8a	8cc) 8ff 8aa
=423	=423	=423	=423
8P	8IV	8B-' 8b-'	8dd' 8ff' 8bb-' 8ddd'
4P	4viioD7c	(4B- 4b-	(4ee 4gg 4ddd- 4eee
8P	8viioD7/V	8B) 8b	8ff) 8aa- 8ddd 8fff
=424	=424	=424	=424
*	*	*	*^
2D	2Cc	4c 4cc	8aa-L	4ff
.	.	.	8aa-J	.
.	.	4r	8aa-L	4r
.	.	.	8aa-J	.
*	*	*	*v	*v
*-	*-	*-	*-
!!!COM: Mozart
!!!OTL: 8 Variationen uber das Lied "Ein Weib ist das herrlichste Ding"
!!!Variation: Variation 8 e (coda)
**function	**harm	**kern	**kern
*	*	*clefG2	*clefG2
*	*	*k[b-]	*k[b-]
*F:	*F:	*F:	*F:
*M2/4	*M2/4	*M2/4	*M2/4
=425	=425	=425	=425
2D	2V/-VI	2r	8aa-L
.	.	.	8aa-J
.	.	.	8aa-L
.	.	.	8aa-J
=426	=426	=426	=426
2D	2V7d/-VI	2r	8gg-L 8aa-
.	.	.	8gg-J 8aa-
.	.	.	8gg-L 8aa-
.	.	.	8gg-J 8aa-
=427	=427	=427	=427
2D	2V7/-VI	4r	8gg-L 8aa-
.	.	.	8gg-J 8aa-
.	.	8r	8gg-L 8aa-
.	.	8A-	8gg-J 8aa-
=428	=428	=428	=428
2D	2I/-VI	(8d-	8ffL 8aa-
.	.	4A-	8ffJ 8aa-
.	.	.	8ffL 8aa-
.	.	8d)	8ffJ 8aa-
=429	=429	=429	=429
2D	2V7/-VI	(8e-	8gg-L 8aa-
.	.	4A-	8gg-J 8aa-
.	.	.	8gg-L 8aa-
.	.	8e)	8ccJ 8aa-
=430	=430	=430	=430
*	*	*	*^
2D	2Ib/-VI	2f	[2aa-	(8dd-
.	.	.	.	4a-
.	.	.	.	8dd)
=431	=431	=431	=431	=431
2D	2V7b/-VI	(4g-	4.aa-]	(8ee-
.	.	.	.	4a-
.	.	4c)	.	.
.	.	.	8aa-	8ee)
=432	=432	=432	=432	=432
2D	2I/-VI	4d-	(8ddd-	2ff
.	.	.	4aa-	.
.	.	[4dd-	.	.
.	.	.	8ddd)	.
=433	=433	=433	=433	=433
2D	2V7b/-VI	(4dd-]	(8eee-	2gg-
.	.	.	4aa-	.
.	.	4cc)	.	.
.	.	.	8eee)	.
*	*	*	*v	*v
=434	=434	=434	=434
4D	4I/-VI	4dd-	16ffLL
.	.	.	16aa-
.	.	.	16fff
.	.	.	16aa-JJ
4D	4V7d/-VI	4r	16gg-LL
.	.	.	16aa-
.	.	.	16eee-
.	.	.	16aa-JJ
=435	=435	=435	=435
4D	4Ib/-VI	4r	16ffLL
.	.	.	16aa-
.	.	.	16ddd-
.	.	.	16aa-JJ
4D	4V/-VI	4A- 4a-	16ee-LL
.	.	.	16aa-
.	.	.	16ccc
.	.	.	16aa-JJ
=436	=436	=436	=436
4D	4I/-VI	4d- 4dd-	16ffLL
.	.	.	16aa-
.	.	.	16fff
.	.	.	16aa-JJ
4D	4V7d/-VI	4r	16gg-LL
.	.	.	16aa-
.	.	.	16eee-
.	.	.	16aa-JJ
=437	=437	=437	=437
4D	4Ib/-VI	4r	16ffLL
.	.	.	16aa-
.	.	.	16ddd-
.	.	.	16aa-JJ
4D	4V/-VI	4A- 4a-	16ee-LL
.	.	.	16aa-
.	.	.	16ccc
.	.	.	16aa-JJ
=438	=438	=438	=438
2D	2I/-VI	16d-LL	16ffLL
.	.	16dd-	16aa-
.	.	16cc	16ddd-
.	.	16dd-JJ	16aa-JJ
.	.	16A-LL	16fffLL
.	.	16a-	16ddd-
.	.	16g	16aa-
.	.	16a-JJ	16ddd-JJ
*	*	*clefF4	*
=439	=439	=439	=439
2D	2I/-VI	16FLL	16ffLL
.	.	16f	16aa-
.	.	16e	16ddd-
.	.	16fJJ	16aa-JJ
.	.	16D-LL	16fffLL
.	.	16d-	16ddd-
.	.	16c	16aa-
.	.	16d-JJ	16ddd-JJ
=440	=440	=440	=440
2D	2viioD7/V	16BBLL	16ffLL
.	.	16B	16aa-
.	.	16A#	16dddn
.	.	16BJJ	16aa-JJ
.	.	16FFLL	16fffLL
.	.	16F	16ddd
.	.	16E	16aa-
.	.	16FJJ	16dddJJ
=441	=441	=441	=441
2D	2viioD7/V	16DDLL	16ffLL
.	.	16D	16aa-
.	.	16C#	16dddn
.	.	16DJJ	16aa-JJ
.	.	16BBBLL	16fffLL
.	.	16BB	16ddd
.	.	16AA#	16aa-
.	.	16BBJJ	16dddJJ
=442	=442	=442	=442
2D	2Ic	2CC; 2C;	2aan; 2cccn; 2fffn;
=443	=443	=443	=443
2D	2Ic	2r	8r
.	.	.	(16ffLL
.	.	.	16eeJJ
.	.	.	16ggLL
.	.	.	16ff
.	.	.	16aa
.	.	.	16ggJJ
=444	=444	=444	=444
2D	2Ic	2r	16ffLL
.	.	.	16ee
.	.	.	16dd
.	.	.	16ccJJ
.	.	.	16b-LL
.	.	.	16a
.	.	.	16g
.	.	.	16aJJ
=445	=445	=445	=445
2D	2V7	2r	8b-L)
.	.	.	(16ggL
.	.	.	16ff#JJ
.	.	.	16aaLL
.	.	.	16gg
.	.	.	16bb-
.	.	.	16aaJJ
=446	=446	=446	=446
2D	2V7	2r	16ggLL
.	.	.	16ff
.	.	.	16ee
.	.	.	16ddJJ
.	.	.	16ccLL
.	.	.	16b-
.	.	.	16a
.	.	.	16b-JJ
*	*	*clefG2	*
=447	=447	=447	=447
2D	2Ic	8r	8ccL)
.	.	(16fLL	(16aaL
.	.	16eJJ	16ggJJ
.	.	16gLL	16bb-LL
.	.	16f	16aa
.	.	16a	16ccc
.	.	16gJJ	16bb-JJ
=448	=448	=448	=448
2D	2Ic	16fLL	16aaLL
.	.	16e	16gg
.	.	16d	16ff
.	.	16cJJ	16eeJJ
.	.	16B-LL	16ddLL
.	.	16A	16cc
.	.	16G	16b-
.	.	16AJJ	16ccJJ
=449	=449	=449	=449
2D	2V7	8B-L)	8ddL)
.	.	(16gL	(16bb-L
.	.	16f#JJ	16aaJJ
.	.	16aLL	16cccLL
.	.	16g	16bb-
.	.	16b-	16ddd
.	.	16aJJ	16cccJJ
=450	=450	=450	=450
2D	2V7	16gLL	16bb-LL
.	.	16f	16aa
.	.	16e	16gg
.	.	16dJJ	16ffJJ
.	.	16cLL	16eeLL
.	.	16B	16dd
.	.	16A	16cc
.	.	16BJJ)	16ddJJ
=451	=451	=451	=451
*	*	*^	*
2D	2V7	(8cL	2c	16eeLL
.	.	.	.	16cc
.	.	8dJ	.	16ff
.	.	.	.	16ccJJ
.	.	8eL	.	16ggLL
.	.	.	.	16cc
.	.	8fJ	.	16aa
.	.	.	.	16ccJJ
=452	=452	=452	=452	=452
2D	2V7	8gL	4c	16bb-LL
.	.	.	.	16cc
.	.	8f#J	.	16aa
.	.	.	.	16ccJJ
.	.	8gL	4c	16bb-LL
.	.	.	.	16cc
.	.	8f#J)	.	16aa
.	.	.	.	16ccJJ)
*	*	*v	*v	*
=453	=453	=453	=453
2D	2V7	4e; 4g; 4c;	4bb-;
.	.	4r	4bb;
=454	=454	=454	=454
2D	2V7	2r	8ccc
.	.	.	8r
*-	*-	*-	*-
!!!COM: Mozart
!!!OTL: 8 Variationen uber das Lied "Ein Weib ist das herrlichste Ding"
!!!Variation: Variation 8 f (coda)
**function	**harm	**kern	**kern
*	*	*clefG2	*clefG2
*	*	*k[b-]	*k[b-]
*F:	*F:	*F:	*F:
*M3/4	*M3/4	*M3/4	*M3/4
4D	4V	4r	4ccc
=455	=455	=455	=455
2.D	2.V	2.r	(8bbL
.	.	.	8cccJ
.	.	.	8dddL)
.	.	.	8ccc'J
.	.	.	8bb-'L
.	.	.	8aa'J
=456	=456	=456	=456
2D	2V	4r	8gg'L
.	.	.	8ff'J
.	.	4r	8ee'L
.	.	.	8dd'J
4D	4V7d	4b-	(8ccL
.	.	.	8eeJ)
=457	=457	=457	=457
*	*	*	*^
4T	4Ib	(4a	4ff	2.cc
.	.	.	(q32gg	.
4T	4Vc	4g 4b-	(8ffL)	.
.	.	.	8eeJ	.
4T	4I	4f) 4a	8ffL	.
.	.	.	8aaJ)	.
=458	=458	=458	=458	=458
2.P	2.iib	2b-	(4ff#	2dd
.	.	.	4gg)	.
*	*	*clefF4	*	*
*	*	*	*v	*v
.	.	4d	4r
=459	=459	=459	=459
2.P	2.iib	(8c#L	2.r
.	.	8dJ	.
.	.	8e-L)	.
.	.	8d'J	.
.	.	8c'L	.
.	.	8B-'J	.
=460	=460	=460	=460
2.P	2.V7c/ii	8A'L	2r
.	.	8G'J	.
.	.	8F#'L	.
.	.	8E-'J	.
*	*	*	*^
.	.	8D'L	(8ddL	4dd
.	.	8C'J	8ff#J)	.
=461	=461	=461	=461	=461
2.P	2.iib	4BB-	4gg	4dd
*	*	*	*v	*v
*	*	*clefG2	*
.	.	.	(q32aa
.	.	4b- 4dd	(8ggL)
.	.	.	8ff#J
.	.	4g 4b-	8ggL
.	.	.	8bb-J)
=462	=462	=462	=462
2P	2Vb	2en 2g	(4ddd
.	.	.	4ccc
4P	4Ib	4f 4cc	8bb-L
.	.	.	8aaJ)
=463	=463	=463	=463
2P	2iib	4B- 4d	8gg'L
.	.	.	(32aaLL
.	.	.	32gg
.	.	.	32ff#
.	.	.	32ggJJJ
.	.	4r	4bb-)
4P	4V7	4c 4b-	4ee
=464	=464	=464	=464
2.P	2.V7c/V	4d 4b	4ffn'
.	.	4r	8r
.	.	.	(8ff#
.	.	4r	8aaL
.	.	.	8ggJ)
*	*	*clefF4	*
=465	=465	=465	=465
2D	2V7b	4E 4c	4b-'
.	.	4r	4r
*-	*-	*-	*-
!!!COM: Mozart
!!!OTL: 8 Variationen uber das Lied "Ein Weib ist das herrlichste Ding"
!!!Variation: Variation 8 g (coda)
**function	**harm	**kern	**kern
*	*	*clefF4	*clefG2
*	*	*k[b-]	*k[b-]
*F:	*F:	*F:	*F:
*M3/4	*M3/4	*M3/4	*M3/4
4T	4V	4C	4r
=466	=466	=466	=466
*	*	*^	*
2.T	2.Ib	(4F	2.AA	2.r
.	.	4C	.	.
.	.	4F)	.	.
=467	=467	=467	=467	=467
2.T	2.V	(4G	4C	2r
.	.	4C)	2r	.
.	.	4c	.	4ccc
=468	=468	=468	=468	=468
2.T	2.Ib	(4f	2.A	(8bbL
.	.	.	.	8cccJ
.	.	4c	.	8dddL)
.	.	.	.	8ccc'J
.	.	4f)	.	8bb-'L
.	.	.	.	8aa'J
*	*	*v	*v	*
=469	=469	=469	=469
2.T	2.V	(4g 4c	8gg'L
.	.	.	8ff'J
.	.	4c)	8ee'L
.	.	.	8dd'J
.	.	4c	(8ccL
.	.	.	8eeJ)
=470	=470	=470	=470
2.T	2.Ib	(8BL	(4ff
.	.	8cJ	.
.	.	8dL)	4cc
.	.	8c'J	.
.	.	8B-'L	4ff)
.	.	8A'J	.
=471	=471	=471	=471
*	*	*	*^
2.T	2.V7c	8G'L	(4gg	4ee
.	.	8F'J	.	.
.	.	8E'L	4cc)	8ccL
.	.	8D'J	.	8b-J
.	.	(8CL	4ff	8aL 8cc
.	.	8BB-J)	.	8b-J 8dd
=472	=472	=472	=472	=472
2.T	2.Ib	4AA	(8eenL	4cc
.	.	.	8ffJ	.
*	*	*	*v	*v
.	.	4r	8ggL)
.	.	.	8ff'J
.	.	4r	8ee-'L
.	.	.	8dd'J
=473	=473	=473	=473
2.T	2.V7/IV	(4F 4A	8cc'L
.	.	.	8b-'J
.	.	4G 4B-	8a'L
.	.	.	8g'J
.	.	4A) 4c	8f'L
.	.	.	8e-'J
=474	=474	=474	=474
*	*	*^	*
2P	2IV	8r	2.BB-	8dL
.	.	(8A	.	(8cc#J
.	.	8B-L	.	8ddL
.	.	8F#J	.	8aJ
4P	4iib	8GL	.	8b-L
.	.	8B-J)	.	8gJ
=475	=475	=475	=475	=475
2P	2V	8r	2.C	8en'L)
.	.	(8B	.	(8dd#J
.	.	8cL	.	8eeL
.	.	8G#J	.	8bJ
4P	4iiib	8AL	.	8ccL
.	.	8cJ)	.	8aJ
=476	=476	=476	=476	=476
2P	2vi	8r	2.D	8f'L)
.	.	(8c#	.	(8eeJ
.	.	8dL	.	8ffL
.	.	8AJ	.	8cc#J
4P	4IVb	8B-L	.	8ddL
.	.	8dJ)	.	8b-J
*	*	*v	*v	*
=477	=477	=477	=477
2.D	2.V7b	4E'	4g')
.	.	4EE'	4cc' 4gg' 4bb-'
.	.	4r	4r
=478	=478	=478	=478
2D	2r	2r	2r
*-	*-	*-	*-
!!!COM: Mozart
!!!OTL: 8 Variationen uber das Lied "Ein Weib ist das herrlichste Ding"
!!!Variation: Variation 8 h (coda)
**function	**harm	**kern	**kern
*	*	*clefF7d	*clefG2
*	*	*k[b-]	*k[b-]
*F:	*F:	*F:	*F:
*M3/4	*M3/4	*M3/4	*M3/4
4T	4I	4r	4a 4cc
=479	=479	=479	=479
2.T	2.I	(4F 4A	(4a 4cc
.	.	4G 4B-	4g 4b-
.	.	4A) 4c	4f) 4a
=480	=480	=480	=480
2T	2IV	4B- 4d	(4f 4dd
.	.	4r	4d 4b-
4T	4iib	4r	4B-) 4g
=481	=481	=481	=481
*	*	*^	*
2T	2Cc	(4A	2.C	(4f
.	.	4B-	.	4e)
4T	4V7	4G)	.	4e 4cc
=482	=482	=482	=482	=482
2.T	2.I	2F	2FF	(4g 4b-
.	.	.	.	4f) 4a
*	*	*v	*v	*
*	*	*clefG2	*
.	.	4f' 4a'	4aa' 4ccc'
=483	=483	=483	=483
2.T	2.I	(4f 4a	(4aa 4ccc
.	.	4g 4b-	4gg 4bb-
.	.	4a) 4cc	4ff) 4aa
=484	=484	=484	=484
4T	4IV	4B- 4b-	4dd 4ff 4bb- 4ddd
4T	4viioD7c	4r	4ee 4gg 4ddd- 4eee
4T	4viioD7/V	4B 4b	4ff 4aa- 4ddd 4fff
=485	=485	=485	=485
2T	2	2.r	4r
.	.	.	4r
4D	4V	.	4cc
=486	=486	=486	=486
2.D	2.V	2.r	(8ddL
.	.	.	8ccJ
.	.	.	8bL)
.	.	.	8cc'J
.	.	.	8dd'L
.	.	.	8ee'J
*	*	*clefF4	*
=487	=487	=487	=487
2.D	2.V	2r	8ff'L
.	.	.	8gg'J
.	.	.	8aa'L
.	.	.	8bb-'J
.	.	4c	8ccc'L
.	.	.	8ccc#'J
=488	=488	=488	=488
*	*	*	*^
2.D	2.ii7b	(8BL	2.ddd	4dd 4ff 4gg
.	.	8cJ	.	.
.	.	8dL)	.	4r
.	.	8c'J	.	.
.	.	8B-'L	.	4r
.	.	8A'J	.	.
=489	=489	=489	=489	=489
2.D	2.V7c	8G'L	2.eee	4ee 4gg 4cccn
.	.	8F'J	.	.
.	.	8E'L	.	4r
.	.	8D'J	.	.
.	.	8C'L	.	4r
.	.	8BB-'J	.	.
*	*	*	*v	*v
=490	=490	=490	=490
4T	4Ib	4AA 4A	4ff 4ccc 4fff
4P	4ii7b	4BB- 4B-	4ff 4gg 4ddd
4D	4V7	4C 4c	4g 4b- 4cc 4ee
=491	=491	=491	=491
2.T	2.I	4FF 4F	4f 4a 4cc 4ff
.	.	4r	4r
.	.	4r	4cc
=492	=492	=492	=492
2.T	2.V7	(2.C 2.G 2.B- 2.c	(8bL
.	.	.	8ccJ
.	.	.	8cc#L)
.	.	.	8dd'J
.	.	.	8ee-'L
.	.	.	8ee'J
=493	=493	=493	=493
2.T	2.I	4F) 4A 4c	4ff
.	.	4r	4r
.	.	4r	4cc'
=494	=494	=494	=494
2.T	2.V7	(2.C 2.E 2.B- 2.c	(8ddL
.	.	.	8ccJ
.	.	.	8bL)
.	.	.	8b-'J
.	.	.	8a'L
.	.	.	8g'J
=495	=495	=495	=495
2.T	2.I	4F) 4A 4c	4f
.	.	4r	4r
.	.	4r	4r
==	==	==	==
*-	*-	*-	*-
